campaign/color/luts/locos_materos_master_grade.cube
TITLE "Locos Materos Master Grade"
LUT_3D_SIZE 65
DOMAIN_MIN 0.0 0.0 0.0
DOMAIN_MAX 1.0 1.0 1.0
0.000000 0.000000 0.000000
0.010691 0.000000 0.000000
0.023042 0.000000 0.000000
0.036165 0.000000 0.000000
0.049842 0.000000 0.000000
0.063962 0.000000 0.000000
0.078456 0.000000 0.000000
0.093273 0.000000 0.000000
0.108379 0.000000 0.000000
0.123743 0.000000 0.000000
0.139341 0.000000 0.000000
0.155153 0.000000 0.000000
0.171162 0.000000 0.000000
0.187351 0.000000 0.000000
0.203708 0.000000 0.000000
0.220218 0.000000 0.000000
0.236870 0.000000 0.000000
0.253654 0.000000 0.000000
0.270558 0.000000 0.000000
0.287573 0.000000 0.000000
0.304690 0.000000 0.000000
0.321900 0.000000 0.000000
0.339193 0.000000 0.000000
0.356562 0.000000 0.000000
0.373999 0.000000 0.000000
0.391496 0.000000 0.000000
0.409044 0.000000 0.000000
0.426636 0.000000 0.000000
0.444265 0.000000 0.000000
0.461923 0.000000 0.000000
0.479603 0.000000 0.000000
0.497298 0.000000 0.000000
0.515000 0.000000 0.000000
0.532702 0.000000 0.000000
0.550397 0.000000 0.000000
0.568077 0.000000 0.000000
0.585735 0.000000 0.000000
0.603364 0.000000 0.000000
0.620956 0.000000 0.000000
0.638504 0.000000 0.000000
0.656001 0.000000 0.000000
0.673437 0.000000 0.000000
0.690807 0.000000 0.000000
0.708100 0.000000 0.000000
0.725310 0.000000 0.000000
0.742427 0.000000 0.000000
0.759442 0.000000 0.000000
0.776346 0.000000 0.000000
0.793130 0.000000 0.000000
0.809782 0.000000 0.000000
0.826292 0.000000 0.000000
0.842648 0.000000 0.000000
0.858838 0.000000 0.000000
0.874847 0.000000 0.000000
0.890659 0.000000 0.000000
0.906257 0.000000 0.000000
0.921621 0.000000 0.000000
0.936726 0.000000 0.000000
0.951544 0.000000 0.000000
0.966038 0.000000 0.000000
0.980158 0.000000 0.000000
0.993835 0.000000 0.000000
1.000000 0.000000 0.000000
1.000000 0.000000 0.000000
1.000000 0.000000 0.000000
0.000000 0.011379 0.000000
0.010691 0.011379 0.000000
0.023042 0.011379 0.000000
0.036165 0.011379 0.000000
0.049842 0.011379 0.000000
0.063962 0.011379 0.000000
0.078456 0.011379 0.000000
0.093273 0.011379 0.000000
0.108379 0.011379 0.000000
0.123743 0.011379 0.000000
0.139341 0.011379 0.000000
0.155153 0.011379 0.000000
0.171162 0.011379 0.000000
0.187351 0.011379 0.000000
0.203708 0.011379 0.000000
0.220218 0.011379 0.000000
0.236870 0.011379 0.000000
0.253654 0.011379 0.000000
0.270558 0.011379 0.000000
0.287573 0.011379 0.000000
0.304690 0.011379 0.000000
0.321900 0.011379 0.000000
0.339193 0.011379 0.000000
0.356562 0.011379 0.000000
0.373999 0.011379 0.000000
0.391496 0.011379 0.000000
0.409044 0.011379 0.000000
0.426636 0.011379 0.000000
0.444265 0.011379 0.000000
0.461923 0.011379 0.000000
0.479603 0.011379 0.000000
0.497298 0.011379 0.000000
0.515000 0.011379 0.000000
0.532702 0.011379 0.000000
0.550397 0.011379 0.000000
0.568077 0.011379 0.000000
0.585735 0.011379 0.000000
0.603364 0.011379 0.000000
0.620956 0.011379 0.000000
0.638504 0.011379 0.000000
0.656001 0.011379 0.000000
0.673437 0.011379 0.000000
0.690807 0.011379 0.000000
0.708100 0.011379 0.000000
0.725310 0.011379 0.000000
0.742427 0.011379 0.000000
0.759442 0.011379 0.000000
0.776346 0.011379 0.000000
0.793130 0.011379 0.000000
0.809782 0.011379 0.000000
0.826292 0.011379 0.000000
0.842648 0.011379 0.000000
0.858838 0.011379 0.000000
0.874847 0.011379 0.000000
0.890659 0.011379 0.000000
0.906257 0.011379 0.000000
0.921621 0.011379 0.000000
0.936726 0.011379 0.000000
0.951544 0.011379 0.000000
0.966038 0.011379 0.000000
0.980158 0.011379 0.000000
0.993835 0.011379 0.000000
1.000000 0.011379 0.000000
1.000000 0.011379 0.000000
1.000000 0.011379 0.000000
0.000000 0.024162 0.000000
0.010691 0.024162 0.000000
0.023042 0.024162 0.000000
0.036165 0.024162 0.000000
0.049842 0.024162 0.000000
0.063962 0.024162 0.000000
0.078456 0.024162 0.000000
0.093273 0.024162 0.000000
0.108379 0.024162 0.000000
0.123743 0.024162 0.000000
0.139341 0.024162 0.000000
0.155153 0.024162 0.000000
0.171162 0.024162 0.000000
0.187351 0.024162 0.000000
0.203708 0.024162 0.000000
0.220218 0.024162 0.000000
0.236870 0.024162 0.000000
0.253654 0.024162 0.000000
0.270558 0.024162 0.000000
0.287573 0.024162 0.000000
0.304690 0.024162 0.000000
0.321900 0.024162 0.000000
0.339193 0.024162 0.000000
0.356562 0.024162 0.000000
0.373999 0.024162 0.000000
0.391496 0.024162 0.000000
0.409044 0.024162 0.000000
0.426636 0.024162 0.000000
0.444265 0.024162 0.000000
0.461923 0.024162 0.000000
0.479603 0.024162 0.000000
0.497298 0.024162 0.000000
0.515000 0.024162 0.000000
0.532702 0.024162 0.000000
0.550397 0.024162 0.000000
0.568077 0.024162 0.000000
0.585735 0.024162 0.000000
0.603364 0.024162 0.000000
0.620956 0.024162 0.000000
0.638504 0.024162 0.000000
0.656001 0.024162 0.000000
0.673437 0.024162 0.000000
0.690807 0.024162 0.000000
0.708100 0.024162 0.000000
0.725310 0.024162 0.000000
0.742427 0.024162 0.000000
0.759442 0.024162 0.000000
0.776346 0.024162 0.000000
0.793130 0.024162 0.000000
0.809782 0.024162 0.000000
0.826292 0.024162 0.000000
0.842648 0.024162 0.000000
0.858838 0.024162 0.000000
0.874847 0.024162 0.000000
0.890659 0.024162 0.000000
0.906257 0.024162 0.000000
0.921621 0.024162 0.000000
0.936726 0.024162 0.000000
0.951544 0.024162 0.000000
0.966038 0.024162 0.000000
0.980158 0.024162 0.000000
0.993835 0.024162 0.000000
1.000000 0.024162 0.000000
1.000000 0.024162 0.000000
1.000000 0.024162 0.000000
0.000000 0.037583 0.000000
0.010691 0.037583 0.000000
0.023042 0.037583 0.000000
0.036165 0.037583 0.000000
0.049842 0.037583 0.000000
0.063962 0.037583 0.000000
0.078456 0.037583 0.000000
0.093273 0.037583 0.000000
0.108379 0.037583 0.000000
0.123743 0.037583 0.000000
0.139341 0.037583 0.000000
0.155153 0.037583 0.000000
0.171162 0.037583 0.000000
0.187351 0.037583 0.000000
0.203708 0.037583 0.000000
0.220218 0.037583 0.000000
0.236870 0.037583 0.000000
0.253654 0.037583 0.000000
0.270558 0.037583 0.000000
0.287573 0.037583 0.000000
0.304690 0.037583 0.000000
0.321900 0.037583 0.000000
0.339193 0.037583 0.000000
0.356562 0.037583 0.000000
0.373999 0.037583 0.000000
0.391496 0.037583 0.000000
0.409044 0.037583 0.000000
0.426636 0.037583 0.000000
0.444265 0.037583 0.000000
0.461923 0.037583 0.000000
0.479603 0.037583 0.000000
0.497298 0.037583 0.000000
0.515000 0.037583 0.000000
0.532702 0.037583 0.000000
0.550397 0.037583 0.000000
0.568077 0.037583 0.000000
0.585735 0.037583 0.000000
0.603364 0.037583 0.000000
0.620956 0.037583 0.000000
0.638504 0.037583 0.000000
0.656001 0.037583 0.000000
0.673437 0.037583 0.000000
0.690807 0.037583 0.000000
0.708100 0.037583 0.000000
0.725310 0.037583 0.000000
0.742427 0.037583 0.000000
0.759442 0.037583 0.000000
0.776346 0.037583 0.000000
0.793130 0.037583 0.000000
0.809782 0.037583 0.000000
0.826292 0.037583 0.000000
0.842648 0.037583 0.000000
0.858838 0.037583 0.000000
0.874847 0.037583 0.000000
0.890659 0.037583 0.000000
0.906257 0.037583 0.000000
0.921621 0.037583 0.000000
0.936726 0.037583 0.000000
0.951544 0.037583 0.000000
0.966038 0.037583 0.000000
0.980158 0.037583 0.000000
0.993835 0.037583 0.000000
1.000000 0.037583 0.000000
1.000000 0.037583 0.000000
1.000000 0.037583 0.000000
0.000000 0.051456 0.000000
0.010691 0.051456 0.000000
0.023042 0.051456 0.000000
0.036165 0.051456 0.000000
0.049842 0.051456 0.000000
0.063962 0.051456 0.000000
0.078456 0.051456 0.000000
0.093273 0.051456 0.000000
0.108379 0.051456 0.000000
0.123743 0.051456 0.000000
0.139341 0.051456 0.000000
0.155153 0.051456 0.000000
0.171162 0.051456 0.000000
0.187351 0.051456 0.000000
0.203708 0.051456 0.000000
0.220218 0.051456 0.000000
0.236870 0.051456 0.000000
0.253654 0.051456 0.000000
0.270558 0.051456 0.000000
0.287573 0.051456 0.000000
0.304690 0.051456 0.000000
0.321900 0.051456 0.000000
0.339193 0.051456 0.000000
0.356562 0.051456 0.000000
0.373999 0.051456 0.000000
0.391496 0.051456 0.000000
0.409044 0.051456 0.000000
0.426636 0.051456 0.000000
0.444265 0.051456 0.000000
0.461923 0.051456 0.000000
0.479603 0.051456 0.000000
0.497298 0.051456 0.000000
0.515000 0.051456 0.000000
0.532702 0.051456 0.000000
0.550397 0.051456 0.000000
0.568077 0.051456 0.000000
0.585735 0.051456 0.000000
0.603364 0.051456 0.000000
0.620956 0.051456 0.000000
0.638504 0.051456 0.000000
0.656001 0.051456 0.000000
0.673437 0.051456 0.000000
0.690807 0.051456 0.000000
0.708100 0.051456 0.000000
0.725310 0.051456 0.000000
0.742427 0.051456 0.000000
0.759442 0.051456 0.000000
0.776346 0.051456 0.000000
0.793130 0.051456 0.000000
0.809782 0.051456 0.000000
0.826292 0.051456 0.000000
0.842648 0.051456 0.000000
0.858838 0.051456 0.000000
0.874847 0.051456 0.000000
0.890659 0.051456 0.000000
0.906257 0.051456 0.000000
0.921621 0.051456 0.000000
0.936726 0.051456 0.000000
0.951544 0.051456 0.000000
0.966038 0.051456 0.000000
0.980158 0.051456 0.000000
0.993835 0.051456 0.000000
1.000000 0.051456 0.000000
1.000000 0.051456 0.000000
1.000000 0.051456 0.000000
0.000000 0.065688 0.000000
0.010691 0.065688 0.000000
0.023042 0.065688 0.000000
0.036165 0.065688 0.000000
0.049842 0.065688 0.000000
0.063962 0.065688 0.000000
0.078456 0.065688 0.000000
0.093273 0.065688 0.000000
0.108379 0.065688 0.000000
0.123743 0.065688 0.000000
0.139341 0.065688 0.000000
0.155153 0.065688 0.000000
0.171162 0.065688 0.000000
0.187351 0.065688 0.000000
0.203708 0.065688 0.000000
0.220218 0.065688 0.000000
0.236870 0.065688 0.000000
0.253654 0.065688 0.000000
0.270558 0.065688 0.000000
0.287573 0.065688 0.000000
0.304690 0.065688 0.000000
0.321900 0.065688 0.000000
0.339193 0.065688 0.000000
0.356562 0.065688 0.000000
0.373999 0.065688 0.000000
0.391496 0.065688 0.000000
0.409044 0.065688 0.000000
0.426636 0.065688 0.000000
0.444265 0.065688 0.000000
0.461923 0.065688 0.000000
0.479603 0.065688 0.000000
0.497298 0.065688 0.000000
0.515000 0.065688 0.000000
0.532702 0.065688 0.000000
0.550397 0.065688 0.000000
0.568077 0.065688 0.000000
0.585735 0.065688 0.000000
0.603364 0.065688 0.000000
0.620956 0.065688 0.000000
0.638504 0.065688 0.000000
0.656001 0.065688 0.000000
0.673437 0.065688 0.000000
0.690807 0.065688 0.000000
0.708100 0.065688 0.000000
0.725310 0.065688 0.000000
0.742427 0.065688 0.000000
0.759442 0.065688 0.000000
0.776346 0.065688 0.000000
0.793130 0.065688 0.000000
0.809782 0.065688 0.000000
0.826292 0.065688 0.000000
0.842648 0.065688 0.000000
0.858838 0.065688 0.000000
0.874847 0.065688 0.000000
0.890659 0.065688 0.000000
0.906257 0.065688 0.000000
0.921621 0.065688 0.000000
0.936726 0.065688 0.000000
0.951544 0.065688 0.000000
0.966038 0.065688 0.000000
0.980158 0.065688 0.000000
0.993835 0.065688 0.000000
1.000000 0.065688 0.000000
1.000000 0.065688 0.000000
1.000000 0.065688 0.000000
0.000000 0.080220 0.000000
0.010691 0.080220 0.000000
0.023042 0.080220 0.000000
0.036165 0.080220 0.000000
0.049842 0.080220 0.000000
0.063962 0.080220 0.000000
0.078456 0.080220 0.000000
0.093273 0.080220 0.000000
0.108379 0.080220 0.000000
0.123743 0.080220 0.000000
0.139341 0.080220 0.000000
0.155153 0.080220 0.000000
0.171162 0.080220 0.000000
0.187351 0.080220 0.000000
0.203708 0.080220 0.000000
0.220218 0.080220 0.000000
0.236870 0.080220 0.000000
0.253654 0.080220 0.000000
0.270558 0.080220 0.000000
0.287573 0.080220 0.000000
0.304690 0.080220 0.000000
0.321900 0.080220 0.000000
0.339193 0.080220 0.000000
0.356562 0.080220 0.000000
0.373999 0.080220 0.000000
0.391496 0.080220 0.000000
0.409044 0.080220 0.000000
0.426636 0.080220 0.000000
0.444265 0.080220 0.000000
0.461923 0.080220 0.000000
0.479603 0.080220 0.000000
0.497298 0.080220 0.000000
0.515000 0.080220 0.000000
0.532702 0.080220 0.000000
0.550397 0.080220 0.000000
0.568077 0.080220 0.000000
0.585735 0.080220 0.000000
0.603364 0.080220 0.000000
0.620956 0.080220 0.000000
0.638504 0.080220 0.000000
0.656001 0.080220 0.000000
0.673437 0.080220 0.000000
0.690807 0.080220 0.000000
0.708100 0.080220 0.000000
0.725310 0.080220 0.000000
0.742427 0.080220 0.000000
0.759442 0.080220 0.000000
0.776346 0.080220 0.000000
0.793130 0.080220 0.000000
0.809782 0.080220 0.000000
0.826292 0.080220 0.000000
0.842648 0.080220 0.000000
0.858838 0.080220 0.000000
0.874847 0.080220 0.000000
0.890659 0.080220 0.000000
0.906257 0.080220 0.000000
0.921621 0.080220 0.000000
0.936726 0.080220 0.000000
0.951544 0.080220 0.000000
0.966038 0.080220 0.000000
0.980158 0.080220 0.000000
0.993835 0.080220 0.000000
1.000000 0.080220 0.000000
1.000000 0.080220 0.000000
1.000000 0.080220 0.000000
0.000000 0.095012 0.000000
0.010691 0.095012 0.000000
0.023042 0.095012 0.000000
0.036165 0.095012 0.000000
0.049842 0.095012 0.000000
0.063962 0.095012 0.000000
0.078456 0.095012 0.000000
0.093273 0.095012 0.000000
0.108379 0.095012 0.000000
0.123743 0.095012 0.000000
0.139341 0.095012 0.000000
0.155153 0.095012 0.000000
0.171162 0.095012 0.000000
0.187351 0.095012 0.000000
0.203708 0.095012 0.000000
0.220218 0.095012 0.000000
0.236870 0.095012 0.000000
0.253654 0.095012 0.000000
0.270558 0.095012 0.000000
0.287573 0.095012 0.000000
0.304690 0.095012 0.000000
0.321900 0.095012 0.000000
0.339193 0.095012 0.000000
0.356562 0.095012 0.000000
0.373999 0.095012 0.000000
0.391496 0.095012 0.000000
0.409044 0.095012 0.000000
0.426636 0.095012 0.000000
0.444265 0.095012 0.000000
0.461923 0.095012 0.000000
0.479603 0.095012 0.000000
0.497298 0.095012 0.000000
0.515000 0.095012 0.000000
0.532702 0.095012 0.000000
0.550397 0.095012 0.000000
0.568077 0.095012 0.000000
0.585735 0.095012 0.000000
0.603364 0.095012 0.000000
0.620956 0.095012 0.000000
0.638504 0.095012 0.000000
0.656001 0.095012 0.000000
0.673437 0.095012 0.000000
0.690807 0.095012 0.000000
0.708100 0.095012 0.000000
0.725310 0.095012 0.000000
0.742427 0.095012 0.000000
0.759442 0.095012 0.000000
0.776346 0.095012 0.000000
0.793130 0.095012 0.000000
0.809782 0.095012 0.000000
0.826292 0.095012 0.000000
0.842648 0.095012 0.000000
0.858838 0.095012 0.000000
0.874847 0.095012 0.000000
0.890659 0.095012 0.000000
0.906257 0.095012 0.000000
0.921621 0.095012 0.000000
0.936726 0.095012 0.000000
0.951544 0.095012 0.000000
0.966038 0.095012 0.000000
0.980158 0.095012 0.000000
0.993835 0.095012 0.000000
1.000000 0.095012 0.000000
1.000000 0.095012 0.000000
1.000000 0.095012 0.000000
0.000000 0.110032 0.000000
0.010691 0.110032 0.000000
0.023042 0.110032 0.000000
0.036165 0.110032 0.000000
0.049842 0.110032 0.000000
0.063962 0.110032 0.000000
0.078456 0.110032 0.000000
0.093273 0.110032 0.000000
0.108379 0.110032 0.000000
0.123743 0.110032 0.000000
0.139341 0.110032 0.000000
0.155153 0.110032 0.000000
0.171162 0.110032 0.000000
0.187351 0.110032 0.000000
0.203708 0.110032 0.000000
0.220218 0.110032 0.000000
0.236870 0.110032 0.000000
0.253654 0.110032 0.000000
0.270558 0.110032 0.000000
0.287573 0.110032 0.000000
0.304690 0.110032 0.000000
0.321900 0.110032 0.000000
0.339193 0.110032 0.000000
0.356562 0.110032 0.000000
0.373999 0.110032 0.000000
0.391496 0.110032 0.000000
0.409044 0.110032 0.000000
0.426636 0.110032 0.000000
0.444265 0.110032 0.000000
0.461923 0.110032 0.000000
0.479603 0.110032 0.000000
0.497298 0.110032 0.000000
0.515000 0.110032 0.000000
0.532702 0.110032 0.000000
0.550397 0.110032 0.000000
0.568077 0.110032 0.000000
0.585735 0.110032 0.000000
0.603364 0.110032 0.000000
0.620956 0.110032 0.000000
0.638504 0.110032 0.000000
0.656001 0.110032 0.000000
0.673437 0.110032 0.000000
0.690807 0.110032 0.000000
0.708100 0.110032 0.000000
0.725310 0.110032 0.000000
0.742427 0.110032 0.000000
0.759442 0.110032 0.000000
0.776346 0.110032 0.000000
0.793130 0.110032 0.000000
0.809782 0.110032 0.000000
0.826292 0.110032 0.000000
0.842648 0.110032 0.000000
0.858838 0.110032 0.000000
0.874847 0.110032 0.000000
0.890659 0.110032 0.000000
0.906257 0.110032 0.000000
0.921621 0.110032 0.000000
0.936726 0.110032 0.000000
0.951544 0.110032 0.000000
0.966038 0.110032 0.000000
0.980158 0.110032 0.000000
0.993835 0.110032 0.000000
1.000000 0.110032 0.000000
1.000000 0.110032 0.000000
1.000000 0.110032 0.000000
0.000000 0.125258 0.000000
0.010691 0.125258 0.000000
0.023042 0.125258 0.000000
0.036165 0.125258 0.000000
0.049842 0.125258 0.000000
0.063962 0.125258 0.000000
0.078456 0.125258 0.000000
0.093273 0.125258 0.000000
0.108379 0.125258 0.000000
0.123743 0.125258 0.000000
0.139341 0.125258 0.000000
0.155153 0.125258 0.000000
0.171162 0.125258 0.000000
0.187351 0.125258 0.000000
0.203708 0.125258 0.000000
0.220218 0.125258 0.000000
0.236870 0.125258 0.000000
0.253654 0.125258 0.000000
0.270558 0.125258 0.000000
0.287573 0.125258 0.000000
0.304690 0.125258 0.000000
0.321900 0.125258 0.000000
0.339193 0.125258 0.000000
0.356562 0.125258 0.000000
0.373999 0.125258 0.000000
0.391496 0.125258 0.000000
0.409044 0.125258 0.000000
0.426636 0.125258 0.000000
0.444265 0.125258 0.000000
0.461923 0.125258 0.000000
0.479603 0.125258 0.000000
0.497298 0.125258 0.000000
0.515000 0.125258 0.000000
0.532702 0.125258 0.000000
0.550397 0.125258 0.000000
0.568077 0.125258 0.000000
0.585735 0.125258 0.000000
0.603364 0.125258 0.000000
0.620956 0.125258 0.000000
0.638504 0.125258 0.000000
0.656001 0.125258 0.000000
0.673437 0.125258 0.000000
0.690807 0.125258 0.000000
0.708100 0.125258 0.000000
0.725310 0.125258 0.000000
0.742427 0.125258 0.000000
0.759442 0.125258 0.000000
0.776346 0.125258 0.000000
0.793130 0.125258 0.000000
0.809782 0.125258 0.000000
0.826292 0.125258 0.000000
0.842648 0.125258 0.000000
0.858838 0.125258 0.000000
0.874847 0.125258 0.000000
0.890659 0.125258 0.000000
0.906257 0.125258 0.000000
0.921621 0.125258 0.000000
0.936726 0.125258 0.000000
0.951544 0.125258 0.000000
0.966038 0.125258 0.000000
0.980158 0.125258 0.000000
0.993835 0.125258 0.000000
1.000000 0.125258 0.000000
1.000000 0.125258 0.000000
1.000000 0.125258 0.000000
0.000000 0.140669 0.000000
0.010691 0.140669 0.000000
0.023042 0.140669 0.000000
0.036165 0.140669 0.000000
0.049842 0.140669 0.000000
0.063962 0.140669 0.000000
0.078456 0.140669 0.000000
0.093273 0.140669 0.000000
0.108379 0.140669 0.000000
0.123743 0.140669 0.000000
0.139341 0.140669 0.000000
0.155153 0.140669 0.000000
0.171162 0.140669 0.000000
0.187351 0.140669 0.000000
0.203708 0.140669 0.000000
0.220218 0.140669 0.000000
0.236870 0.140669 0.000000
0.253654 0.140669 0.000000
0.270558 0.140669 0.000000
0.287573 0.140669 0.000000
0.304690 0.140669 0.000000
0.321900 0.140669 0.000000
0.339193 0.140669 0.000000
0.356562 0.140669 0.000000
0.373999 0.140669 0.000000
0.391496 0.140669 0.000000
0.409044 0.140669 0.000000
0.426636 0.140669 0.000000
0.444265 0.140669 0.000000
0.461923 0.140669 0.000000
0.479603 0.140669 0.000000
0.497298 0.140669 0.000000
0.515000 0.140669 0.000000
0.532702 0.140669 0.000000
0.550397 0.140669 0.000000
0.568077 0.140669 0.000000
0.585735 0.140669 0.000000
0.603364 0.140669 0.000000
0.620956 0.140669 0.000000
0.638504 0.140669 0.000000
0.656001 0.140669 0.000000
0.673437 0.140669 0.000000
0.690807 0.140669 0.000000
0.708100 0.140669 0.000000
0.725310 0.140669 0.000000
0.742427 0.140669 0.000000
0.759442 0.140669 0.000000
0.776346 0.140669 0.000000
0.793130 0.140669 0.000000
0.809782 0.140669 0.000000
0.826292 0.140669 0.000000
0.842648 0.140669 0.000000
0.858838 0.140669 0.000000
0.874847 0.140669 0.000000
0.890659 0.140669 0.000000
0.906257 0.140669 0.000000
0.921621 0.140669 0.000000
0.936726 0.140669 0.000000
0.951544 0.140669 0.000000
0.966038 0.140669 0.000000
0.980158 0.140669 0.000000
0.993835 0.140669 0.000000
1.000000 0.140669 0.000000
1.000000 0.140669 0.000000
1.000000 0.140669 0.000000
0.000000 0.156249 0.000000
0.010691 0.156249 0.000000
0.023042 0.156249 0.000000
0.036165 0.156249 0.000000
0.049842 0.156249 0.000000
0.063962 0.156249 0.000000
0.078456 0.156249 0.000000
0.093273 0.156249 0.000000
0.108379 0.156249 0.000000
0.123743 0.156249 0.000000
0.139341 0.156249 0.000000
0.155153 0.156249 0.000000
0.171162 0.156249 0.000000
0.187351 0.156249 0.000000
0.203708 0.156249 0.000000
0.220218 0.156249 0.000000
0.236870 0.156249 0.000000
0.253654 0.156249 0.000000
0.270558 0.156249 0.000000
0.287573 0.156249 0.000000
0.304690 0.156249 0.000000
0.321900 0.156249 0.000000
0.339193 0.156249 0.000000
0.356562 0.156249 0.000000
0.373999 0.156249 0.000000
0.391496 0.156249 0.000000
0.409044 0.156249 0.000000
0.426636 0.156249 0.000000
0.444265 0.156249 0.000000
0.461923 0.156249 0.000000
0.479603 0.156249 0.000000
0.497298 0.156249 0.000000
0.515000 0.156249 0.000000
0.532702 0.156249 0.000000
0.550397 0.156249 0.000000
0.568077 0.156249 0.000000
0.585735 0.156249 0.000000
0.603364 0.156249 0.000000
0.620956 0.156249 0.000000
0.638504 0.156249 0.000000
0.656001 0.156249 0.000000
0.673437 0.156249 0.000000
0.690807 0.156249 0.000000
0.708100 0.156249 0.000000
0.725310 0.156249 0.000000
0.742427 0.156249 0.000000
0.759442 0.156249 0.000000
0.776346 0.156249 0.000000
0.793130 0.156249 0.000000
0.809782 0.156249 0.000000
0.826292 0.156249 0.000000
0.842648 0.156249 0.000000
0.858838 0.156249 0.000000
0.874847 0.156249 0.000000
0.890659 0.156249 0.000000
0.906257 0.156249 0.000000
0.921621 0.156249 0.000000
0.936726 0.156249 0.000000
0.951544 0.156249 0.000000
0.966038 0.156249 0.000000
0.980158 0.156249 0.000000
0.993835 0.156249 0.000000
1.000000 0.156249 0.000000
1.000000 0.156249 0.000000
1.000000 0.156249 0.000000
0.000000 0.171983 0.000000
0.010691 0.171983 0.000000
0.023042 0.171983 0.000000
0.036165 0.171983 0.000000
0.049842 0.171983 0.000000
0.063962 0.171983 0.000000
0.078456 0.171983 0.000000
0.093273 0.171983 0.000000
0.108379 0.171983 0.000000
0.123743 0.171983 0.000000
0.139341 0.171983 0.000000
0.155153 0.171983 0.000000
0.171162 0.171983 0.000000
0.187351 0.171983 0.000000
0.203708 0.171983 0.000000
0.220218 0.171983 0.000000
0.236870 0.171983 0.000000
0.253654 0.171983 0.000000
0.270558 0.171983 0.000000
0.287573 0.171983 0.000000
0.304690 0.171983 0.000000
0.321900 0.171983 0.000000
0.339193 0.171983 0.000000
0.356562 0.171983 0.000000
0.373999 0.171983 0.000000
0.391496 0.171983 0.000000
0.409044 0.171983 0.000000
0.426636 0.171983 0.000000
0.444265 0.171983 0.000000
0.461923 0.171983 0.000000
0.479603 0.171983 0.000000
0.497298 0.171983 0.000000
0.515000 0.171983 0.000000
0.532702 0.171983 0.000000
0.550397 0.171983 0.000000
0.568077 0.171983 0.000000
0.585735 0.171983 0.000000
0.603364 0.171983 0.000000
0.620956 0.171983 0.000000
0.638504 0.171983 0.000000
0.656001 0.171983 0.000000
0.673437 0.171983 0.000000
0.690807 0.171983 0.000000
0.708100 0.171983 0.000000
0.725310 0.171983 0.000000
0.742427 0.171983 0.000000
0.759442 0.171983 0.000000
0.776346 0.171983 0.000000
0.793130 0.171983 0.000000
0.809782 0.171983 0.000000
0.826292 0.171983 0.000000
0.842648 0.171983 0.000000
0.858838 0.171983 0.000000
0.874847 0.171983 0.000000
0.890659 0.171983 0.000000
0.906257 0.171983 0.000000
0.921621 0.171983 0.000000
0.936726 0.171983 0.000000
0.951544 0.171983 0.000000
0.966038 0.171983 0.000000
0.980158 0.171983 0.000000
0.993835 0.171983 0.000000
1.000000 0.171983 0.000000
1.000000 0.171983 0.000000
1.000000 0.171983 0.000000
0.000000 0.187858 0.000000
0.010691 0.187858 0.000000
0.023042 0.187858 0.000000
0.036165 0.187858 0.000000
0.049842 0.187858 0.000000
0.063962 0.187858 0.000000
0.078456 0.187858 0.000000
0.093273 0.187858 0.000000
0.108379 0.187858 0.000000
0.123743 0.187858 0.000000
0.139341 0.187858 0.000000
0.155153 0.187858 0.000000
0.171162 0.187858 0.000000
0.187351 0.187858 0.000000
0.203708 0.187858 0.000000
0.220218 0.187858 0.000000
0.236870 0.187858 0.000000
0.253654 0.187858 0.000000
0.270558 0.187858 0.000000
0.287573 0.187858 0.000000
0.304690 0.187858 0.000000
0.321900 0.187858 0.000000
0.339193 0.187858 0.000000
0.356562 0.187858 0.000000
0.373999 0.187858 0.000000
0.391496 0.187858 0.000000
0.409044 0.187858 0.000000
0.426636 0.187858 0.000000
0.444265 0.187858 0.000000
0.461923 0.187858 0.000000
0.479603 0.187858 0.000000
0.497298 0.187858 0.000000
0.515000 0.187858 0.000000
0.532702 0.187858 0.000000
0.550397 0.187858 0.000000
0.568077 0.187858 0.000000
0.585735 0.187858 0.000000
0.603364 0.187858 0.000000
0.620956 0.187858 0.000000
0.638504 0.187858 0.000000
