campaign/color/luts/locos_materos_master_grade.cube
TITLE "Locos Materos Master Grade"
LUT_3D_SIZE 9
DOMAIN_MIN 0.0 0.0 0.0
DOMAIN_MAX 1.0 1.0 1.0
0.000000 0.000000 0.000000
0.108379 0.000000 0.000000
0.236870 0.000000 0.000000
0.373999 0.000000 0.000000
0.515000 0.000000 0.000000
0.656001 0.000000 0.000000
0.793130 0.000000 0.000000
0.921621 0.000000 0.000000
1.000000 0.000000 0.000000
0.000000 0.110032 0.000000
0.108379 0.110032 0.000000
0.236870 0.110032 0.000000
0.373999 0.110032 0.000000
0.515000 0.110032 0.000000
0.656001 0.110032 0.000000
0.793130 0.110032 0.000000
0.921621 0.110032 0.000000
1.000000 0.110032 0.000000
0.000000 0.236224 0.000000
0.108379 0.236224 0.000000
0.236870 0.236224 0.000000
0.373999 0.236224 0.000000
0.515000 0.236224 0.000000
0.656001 0.236224 0.000000
0.793130 0.236224 0.000000
0.921621 0.236224 0.000000
1.000000 0.236224 0.000000
0.000000 0.369127 0.000000
0.108379 0.369127 0.000000
0.236870 0.369127 0.000000
0.373999 0.369127 0.000000
0.515000 0.369127 0.000000
0.656001 0.369127 0.000000
0.793130 0.369127 0.000000
0.921621 0.369127 0.000000
1.000000 0.369127 0.000000
0.000000 0.505000 0.000000
0.108379 0.505000 0.000000
0.236870 0.505000 0.000000
0.373999 0.505000 0.000000
0.515000 0.505000 0.000000
0.656001 0.505000 0.000000
0.793130 0.505000 0.000000
0.921621 0.505000 0.000000
1.000000 0.505000 0.000000
0.000000 0.640873 0.000000
0.108379 0.640873 0.000000
0.236870 0.640873 0.000000
0.373999 0.640873 0.000000
0.515000 0.640873 0.000000
0.656001 0.640873 0.000000
0.793130 0.640873 0.000000
0.921621 0.640873 0.000000
1.000000 0.640873 0.000000
0.000000 0.773776 0.000000
0.108379 0.773776 0.000000
0.236870 0.773776 0.000000
0.373999 0.773776 0.000000
0.515000 0.773776 0.000000
0.656001 0.773776 0.000000
0.793130 0.773776 0.000000
0.921621 0.773776 0.000000
1.000000 0.773776 0.000000
0.000000 0.899967 0.000000
0.108379 0.899967 0.000000
0.236870 0.899967 0.000000
0.373999 0.899967 0.000000
0.515000 0.899967 0.000000
0.656001 0.899967 0.000000
0.793130 0.899967 0.000000
0.921621 0.899967 0.000000
1.000000 0.899967 0.000000
0.000000 1.000000 0.000000
0.108379 1.000000 0.000000
0.236870 1.000000 0.000000
0.373999 1.000000 0.000000
0.515000 1.000000 0.000000
0.656001 1.000000 0.000000
0.793130 1.000000 0.000000
0.921621 1.000000 0.000000
1.000000 1.000000 0.000000
0.000000 0.000000 0.108268
0.108379 0.000000 0.108268
0.236870 0.000000 0.108268
0.373999 0.000000 0.108268
0.515000 0.000000 0.108268
0.656001 0.000000 0.108268
0.793130 0.000000 0.108268
0.921621 0.000000 0.108268
1.000000 0.000000 0.108268
0.000000 0.110032 0.108268
0.108379 0.110032 0.108268
0.236870 0.110032 0.108268
0.373999 0.110032 0.108268
0.515000 0.110032 0.108268
0.656001 0.110032 0.108268
0.793130 0.110032 0.108268
0.921621 0.110032 0.108268
1.000000 0.110032 0.108268
0.000000 0.236224 0.108268
0.108379 0.236224 0.108268
0.236870 0.236224 0.108268
0.373999 0.236224 0.108268
0.515000 0.236224 0.108268
0.656001 0.236224 0.108268
0.793130 0.236224 0.108268
0.921621 0.236224 0.108268
1.000000 0.236224 0.108268
0.000000 0.369127 0.108268
0.108379 0.369127 0.108268
0.236870 0.369127 0.108268
0.373999 0.369127 0.108268
0.515000 0.369127 0.108268
0.656001 0.369127 0.108268
0.793130 0.369127 0.108268
0.921621 0.369127 0.108268
1.000000 0.369127 0.108268
0.000000 0.505000 0.108268
0.108379 0.505000 0.108268
0.236870 0.505000 0.108268
0.373999 0.505000 0.108268
0.515000 0.505000 0.108268
0.656001 0.505000 0.108268
0.793130 0.505000 0.108268
0.921621 0.505000 0.108268
1.000000 0.505000 0.108268
0.000000 0.640873 0.108268
0.108379 0.640873 0.108268
0.236870 0.640873 0.108268
0.373999 0.640873 0.108268
0.515000 0.640873 0.108268
0.656001 0.640873 0.108268
0.793130 0.640873 0.108268
0.921621 0.640873 0.108268
1.000000 0.640873 0.108268
0.000000 0.773776 0.108268
0.108379 0.773776 0.108268
0.236870 0.773776 0.108268
0.373999 0.773776 0.108268
0.515000 0.773776 0.108268
0.656001 0.773776 0.108268
0.793130 0.773776 0.108268
0.921621 0.773776 0.108268
1.000000 0.773776 0.108268
0.000000 0.899967 0.108268
0.108379 0.899967 0.108268
0.236870 0.899967 0.108268
0.373999 0.899967 0.108268
0.515000 0.899967 0.108268
0.656001 0.899967 0.108268
0.793130 0.899967 0.108268
0.921621 0.899967 0.108268
1.000000 0.899967 0.108268
0.000000 1.000000 0.108268
0.108379 1.000000 0.108268
0.236870 1.000000 0.108268
0.373999 1.000000 0.108268
0.515000 1.000000 0.108268
0.656001 1.000000 0.108268
0.793130 1.000000 0.108268
0.921621 1.000000 0.108268
1.000000 1.000000 0.108268
0.000000 0.000000 0.228331
0.108379 0.000000 0.228331
0.236870 0.000000 0.228331
0.373999 0.000000 0.228331
0.515000 0.000000 0.228331
0.656001 0.000000 0.228331
0.793130 0.000000 0.228331
0.921621 0.000000 0.228331
1.000000 0.000000 0.228331
0.000000 0.110032 0.228331
0.108379 0.110032 0.228331
0.236870 0.110032 0.228331
0.373999 0.110032 0.228331
0.515000 0.110032 0.228331
0.656001 0.110032 0.228331
0.793130 0.110032 0.228331
0.921621 0.110032 0.228331
1.000000 0.110032 0.228331
0.000000 0.236224 0.228331
0.108379 0.236224 0.228331
0.236870 0.236224 0.228331
0.373999 0.236224 0.228331
0.515000 0.236224 0.228331
0.656001 0.236224 0.228331
0.793130 0.236224 0.228331
0.921621 0.236224 0.228331
1.000000 0.236224 0.228331
0.000000 0.369127 0.228331
0.108379 0.369127 0.228331
0.236870 0.369127 0.228331
0.373999 0.369127 0.228331
0.515000 0.369127 0.228331
0.656001 0.369127 0.228331
0.793130 0.369127 0.228331
0.921621 0.369127 0.228331
1.000000 0.369127 0.228331
0.000000 0.505000 0.228331
0.108379 0.505000 0.228331
0.236870 0.505000 0.228331
0.373999 0.505000 0.228331
0.515000 0.505000 0.228331
0.656001 0.505000 0.228331
0.793130 0.505000 0.228331
0.921621 0.505000 0.228331
1.000000 0.505000 0.228331
0.000000 0.640873 0.228331
0.108379 0.640873 0.228331
0.236870 0.640873 0.228331
0.373999 0.640873 0.228331
0.515000 0.640873 0.228331
0.656001 0.640873 0.228331
0.793130 0.640873 0.228331
0.921621 0.640873 0.228331
1.000000 0.640873 0.228331
0.000000 0.773776 0.228331
0.108379 0.773776 0.228331
0.236870 0.773776 0.228331
0.373999 0.773776 0.228331
0.515000 0.773776 0.228331
0.656001 0.773776 0.228331
0.793130 0.773776 0.228331
0.921621 0.773776 0.228331
1.000000 0.773776 0.228331
0.000000 0.899967 0.228331
0.108379 0.899967 0.228331
0.236870 0.899967 0.228331
0.373999 0.899967 0.228331
0.515000 0.899967 0.228331
0.656001 0.899967 0.228331
0.793130 0.899967 0.228331
0.921621 0.899967 0.228331
1.000000 0.899967 0.228331
0.000000 1.000000 0.228331
0.108379 1.000000 0.228331
0.236870 1.000000 0.228331
0.373999 1.000000 0.228331
0.515000 1.000000 0.228331
0.656001 1.000000 0.228331
0.793130 1.000000 0.228331
0.921621 1.000000 0.228331
1.000000 1.000000 0.228331
0.000000 0.000000 0.353131
0.108379 0.000000 0.353131
0.236870 0.000000 0.353131
0.373999 0.000000 0.353131
0.515000 0.000000 0.353131
0.656001 0.000000 0.353131
0.793130 0.000000 0.353131
0.921621 0.000000 0.353131
1.000000 0.000000 0.353131
0.000000 0.110032 0.353131
0.108379 0.110032 0.353131
0.236870 0.110032 0.353131
0.373999 0.110032 0.353131
0.515000 0.110032 0.353131
0.656001 0.110032 0.353131
0.793130 0.110032 0.353131
0.921621 0.110032 0.353131
1.000000 0.110032 0.353131
0.000000 0.236224 0.353131
0.108379 0.236224 0.353131
0.236870 0.236224 0.353131
0.373999 0.236224 0.353131
0.515000 0.236224 0.353131
0.656001 0.236224 0.353131
0.793130 0.236224 0.353131
0.921621 0.236224 0.353131
1.000000 0.236224 0.353131
0.000000 0.369127 0.353131
0.108379 0.369127 0.353131
0.236870 0.369127 0.353131
0.373999 0.369127 0.353131
0.515000 0.369127 0.353131
0.656001 0.369127 0.353131
0.793130 0.369127 0.353131
0.921621 0.369127 0.353131
1.000000 0.369127 0.353131
0.000000 0.505000 0.353131
0.108379 0.505000 0.353131
0.236870 0.505000 0.353131
0.373999 0.505000 0.353131
0.515000 0.505000 0.353131
0.656001 0.505000 0.353131
0.793130 0.505000 0.353131
0.921621 0.505000 0.353131
1.000000 0.505000 0.353131
0.000000 0.640873 0.353131
0.108379 0.640873 0.353131
0.236870 0.640873 0.353131
0.373999 0.640873 0.353131
0.515000 0.640873 0.353131
0.656001 0.640873 0.353131
0.793130 0.640873 0.353131
0.921621 0.640873 0.353131
1.000000 0.640873 0.353131
0.000000 0.773776 0.353131
0.108379 0.773776 0.353131
0.236870 0.773776 0.353131
0.373999 0.773776 0.353131
0.515000 0.773776 0.353131
0.656001 0.773776 0.353131
0.793130 0.773776 0.353131
0.921621 0.773776 0.353131
1.000000 0.773776 0.353131
0.000000 0.899967 0.353131
0.108379 0.899967 0.353131
0.236870 0.899967 0.353131
0.373999 0.899967 0.353131
0.515000 0.899967 0.353131
0.656001 0.899967 0.353131
0.793130 0.899967 0.353131
0.921621 0.899967 0.353131
1.000000 0.899967 0.353131
0.000000 1.000000 0.353131
0.108379 1.000000 0.353131
0.236870 1.000000 0.353131
0.373999 1.000000 0.353131
0.515000 1.000000 0.353131
0.656001 1.000000 0.353131
0.793130 1.000000 0.353131
0.921621 1.000000 0.353131
1.000000 1.000000 0.353131
0.000000 0.000000 0.480000
0.108379 0.000000 0.480000
0.236870 0.000000 0.480000
0.373999 0.000000 0.480000
0.515000 0.000000 0.480000
0.656001 0.000000 0.480000
0.793130 0.000000 0.480000
0.921621 0.000000 0.480000
1.000000 0.000000 0.480000
0.000000 0.110032 0.480000
0.108379 0.110032 0.480000
0.236870 0.110032 0.480000
0.373999 0.110032 0.480000
0.515000 0.110032 0.480000
0.656001 0.110032 0.480000
0.793130 0.110032 0.480000
0.921621 0.110032 0.480000
1.000000 0.110032 0.480000
0.000000 0.236224 0.480000
0.108379 0.236224 0.480000
0.236870 0.236224 0.480000
0.373999 0.236224 0.480000
0.515000 0.236224 0.480000
0.656001 0.236224 0.480000
0.793130 0.236224 0.480000
0.921621 0.236224 0.480000
1.000000 0.236224 0.480000
0.000000 0.369127 0.480000
0.108379 0.369127 0.480000
0.236870 0.369127 0.480000
0.373999 0.369127 0.480000
0.515000 0.369127 0.480000
0.656001 0.369127 0.480000
0.793130 0.369127 0.480000
0.921621 0.369127 0.480000
1.000000 0.369127 0.480000
0.000000 0.505000 0.480000
0.108379 0.505000 0.480000
0.236870 0.505000 0.480000
0.373999 0.505000 0.480000
0.515000 0.505000 0.480000
0.656001 0.505000 0.480000
0.793130 0.505000 0.480000
0.921621 0.505000 0.480000
1.000000 0.505000 0.480000
0.000000 0.640873 0.480000
0.108379 0.640873 0.480000
0.236870 0.640873 0.480000
0.373999 0.640873 0.480000
0.515000 0.640873 0.480000
0.656001 0.640873 0.480000
0.793130 0.640873 0.480000
0.921621 0.640873 0.480000
1.000000 0.640873 0.480000
0.000000 0.773776 0.480000
0.108379 0.773776 0.480000
0.236870 0.773776 0.480000
0.373999 0.773776 0.480000
0.515000 0.773776 0.480000
0.656001 0.773776 0.480000
0.793130 0.773776 0.480000
0.921621 0.773776 0.480000
1.000000 0.773776 0.480000
0.000000 0.899967 0.480000
0.108379 0.899967 0.480000
0.236870 0.899967 0.480000
0.373999 0.899967 0.480000
0.515000 0.899967 0.480000
0.656001 0.899967 0.480000
0.793130 0.899967 0.480000
0.921621 0.899967 0.480000
1.000000 0.899967 0.480000
0.000000 1.000000 0.480000
0.108379 1.000000 0.480000
0.236870 1.000000 0.480000
0.373999 1.000000 0.480000
0.515000 1.000000 0.480000
0.656001 1.000000 0.480000
0.793130 1.000000 0.480000
0.921621 1.000000 0.480000
1.000000 1.000000 0.480000
0.000000 0.000000 0.606869
0.108379 0.000000 0.606869
0.236870 0.000000 0.606869
0.373999 0.000000 0.606869
0.515000 0.000000 0.606869
0.656001 0.000000 0.606869
0.793130 0.000000 0.606869
0.921621 0.000000 0.606869
1.000000 0.000000 0.606869
0.000000 0.110032 0.606869
0.108379 0.110032 0.606869
0.236870 0.110032 0.606869
0.373999 0.110032 0.606869
0.515000 0.110032 0.606869
0.656001 0.110032 0.606869
0.793130 0.110032 0.606869
0.921621 0.110032 0.606869
1.000000 0.110032 0.606869
0.000000 0.236224 0.606869
0.108379 0.236224 0.606869
0.236870 0.236224 0.606869
0.373999 0.236224 0.606869
0.515000 0.236224 0.606869
0.656001 0.236224 0.606869
0.793130 0.236224 0.606869
0.921621 0.236224 0.606869
1.000000 0.236224 0.606869
0.000000 0.369127 0.606869
0.108379 0.369127 0.606869
0.236870 0.369127 0.606869
0.373999 0.369127 0.606869
0.515000 0.369127 0.606869
0.656001 0.369127 0.606869
0.793130 0.369127 0.606869
0.921621 0.369127 0.606869
1.000000 0.369127 0.606869
0.000000 0.505000 0.606869
0.108379 0.505000 0.606869
0.236870 0.505000 0.606869
0.373999 0.505000 0.606869
0.515000 0.505000 0.606869
0.656001 0.505000 0.606869
0.793130 0.505000 0.606869
0.921621 0.505000 0.606869
1.000000 0.505000 0.606869
0.000000 0.640873 0.606869
0.108379 0.640873 0.606869
0.236870 0.640873 0.606869
0.373999 0.640873 0.606869
0.515000 0.640873 0.606869
0.656001 0.640873 0.606869
0.793130 0.640873 0.606869
0.921621 0.640873 0.606869
1.000000 0.640873 0.606869
0.000000 0.773776 0.606869
0.108379 0.773776 0.606869
0.236870 0.773776 0.606869
0.373999 0.773776 0.606869
0.515000 0.773776 0.606869
0.656001 0.773776 0.606869
0.793130 0.773776 0.606869
0.921621 0.773776 0.606869
1.000000 0.773776 0.606869
0.000000 0.899967 0.606869
0.108379 0.899967 0.606869
0.236870 0.899967 0.606869
0.373999 0.899967 0.606869
0.515000 0.899967 0.606869
0.656001 0.899967 0.606869
0.793130 0.899967 0.606869
0.921621 0.899967 0.606869
1.000000 0.899967 0.606869
0.000000 1.000000 0.606869
0.108379 1.000000 0.606869
0.236870 1.000000 0.606869
0.373999 1.000000 0.606869
0.515000 1.000000 0.606869
0.656001 1.000000 0.606869
0.793130 1.000000 0.606869
0.921621 1.000000 0.606869
1.000000 1.000000 0.606869
0.000000 0.000000 0.731668
0.108379 0.000000 0.731668
0.236870 0.000000 0.731668
0.373999 0.000000 0.731668
0.515000 0.000000 0.731668
0.656001 0.000000 0.731668
0.793130 0.000000 0.731668
0.921621 0.000000 0.731668
1.000000 0.000000 0.731668
0.000000 0.110032 0.731668
0.108379 0.110032 0.731668
0.236870 0.110032 0.731668
0.373999 0.110032 0.731668
0.515000 0.110032 0.731668
0.656001 0.110032 0.731668
0.793130 0.110032 0.731668
0.921621 0.110032 0.731668
1.000000 0.110032 0.731668
0.000000 0.236224 0.731668
0.108379 0.236224 0.731668
0.236870 0.236224 0.731668
0.373999 0.236224 0.731668
0.515000 0.236224 0.731668
0.656001 0.236224 0.731668
0.793130 0.236224 0.731668
0.921621 0.236224 0.731668
1.000000 0.236224 0.731668
0.000000 0.369127 0.731668
0.108379 0.369127 0.731668
0.236870 0.369127 0.731668
0.373999 0.369127 0.731668
0.515000 0.369127 0.731668
0.656001 0.369127 0.731668
0.793130 0.369127 0.731668
0.921621 0.369127 0.731668
1.000000 0.369127 0.731668
0.000000 0.505000 0.731668
0.108379 0.505000 0.731668
0.236870 0.505000 0.731668
0.373999 0.505000 0.731668
0.515000 0.505000 0.731668
0.656001 0.505000 0.731668
0.793130 0.505000 0.731668
0.921621 0.505000 0.731668
1.000000 0.505000 0.731668
0.000000 0.640873 0.731668
0.108379 0.640873 0.731668
0.236870 0.640873 0.731668
0.373999 0.640873 0.731668
0.515000 0.640873 0.731668
0.656001 0.640873 0.731668
0.793130 0.640873 0.731668
0.921621 0.640873 0.731668
1.000000 0.640873 0.731668
0.000000 0.773776 0.731668
0.108379 0.773776 0.731668
0.236870 0.773776 0.731668
0.373999 0.773776 0.731668
0.515000 0.773776 0.731668
0.656001 0.773776 0.731668
0.793130 0.773776 0.731668
0.921621 0.773776 0.731668
1.000000 0.773776 0.731668
0.000000 0.899967 0.731668
0.108379 0.899967 0.731668
0.236870 0.899967 0.731668
0.373999 0.899967 0.731668
0.515000 0.899967 0.731668
0.656001 0.899967 0.731668
0.793130 0.899967 0.731668
0.921621 0.899967 0.731668
1.000000 0.899967 0.731668
0.000000 1.000000 0.731668
0.108379 1.000000 0.731668
0.236870 1.000000 0.731668
0.373999 1.000000 0.731668
0.515000 1.000000 0.731668
0.656001 1.000000 0.731668
0.793130 1.000000 0.731668
0.921621 1.000000 0.731668
1.000000 1.000000 0.731668
0.000000 0.000000 0.851732
0.108379 0.000000 0.851732
0.236870 0.000000 0.851732
0.373999 0.000000 0.851732
0.515000 0.000000 0.851732
0.656001 0.000000 0.851732
0.793130 0.000000 0.851732
0.921621 0.000000 0.851732
1.000000 0.000000 0.851732
0.000000 0.110032 0.851732
0.108379 0.110032 0.851732
0.236870 0.110032 0.851732
0.373999 0.110032 0.851732
0.515000 0.110032 0.851732
0.656001 0.110032 0.851732
0.793130 0.110032 0.851732
0.921621 0.110032 0.851732
1.000000 0.110032 0.851732
0.000000 0.236224 0.851732
0.108379 0.236224 0.851732
0.236870 0.236224 0.851732
0.373999 0.236224 0.851732
0.515000 0.236224 0.851732
0.656001 0.236224 0.851732
0.793130 0.236224 0.851732
0.921621 0.236224 0.851732
1.000000 0.236224 0.851732
0.000000 0.369127 0.851732
0.108379 0.369127 0.851732
0.236870 0.369127 0.851732
0.373999 0.369127 0.851732
0.515000 0.369127 0.851732
0.656001 0.369127 0.851732
0.793130 0.369127 0.851732
0.921621 0.369127 0.851732
1.000000 0.369127 0.851732
0.000000 0.505000 0.851732
0.108379 0.505000 0.851732
0.236870 0.505000 0.851732
0.373999 0.505000 0.851732
0.515000 0.505000 0.851732
0.656001 0.505000 0.851732
0.793130 0.505000 0.851732
0.921621 0.505000 0.851732
1.000000 0.505000 0.851732
0.000000 0.640873 0.851732
0.108379 0.640873 0.851732
0.236870 0.640873 0.851732
0.373999 0.640873 0.851732
0.515000 0.640873 0.851732
0.656001 0.640873 0.851732
0.793130 0.640873 0.851732
0.921621 0.640873 0.851732
1.000000 0.640873 0.851732
0.000000 0.773776 0.851732
0.108379 0.773776 0.851732
0.236870 0.773776 0.851732
0.373999 0.773776 0.851732
0.515000 0.773776 0.851732
0.656001 0.773776 0.851732
0.793130 0.773776 0.851732
0.921621 0.773776 0.851732
1.000000 0.773776 0.851732
0.000000 0.899967 0.851732
0.108379 0.899967 0.851732
0.236870 0.899967 0.851732
0.373999 0.899967 0.851732
0.515000 0.899967 0.851732
0.656001 0.899967 0.851732
0.793130 0.899967 0.851732
0.921621 0.899967 0.851732
1.000000 0.899967 0.851732
0.000000 1.000000 0.851732
0.108379 1.000000 0.851732
0.236870 1.000000 0.851732
0.373999 1.000000 0.851732
0.515000 1.000000 0.851732
0.656001 1.000000 0.851732
0.793130 1.000000 0.851732
0.921621 1.000000 0.851732
1.000000 1.000000 0.851732
0.000000 0.000000 0.960000
0.108379 0.000000 0.960000
0.236870 0.000000 0.960000
0.373999 0.000000 0.960000
0.515000 0.000000 0.960000
0.656001 0.000000 0.960000
0.793130 0.000000 0.960000
0.921621 0.000000 0.960000
1.000000 0.000000 0.960000
0.000000 0.110032 0.960000
0.108379 0.110032 0.960000
0.236870 0.110032 0.960000
0.373999 0.110032 0.960000
0.515000 0.110032 0.960000
0.656001 0.110032 0.960000
0.793130 0.110032 0.960000
0.921621 0.110032 0.960000
1.000000 0.110032 0.960000
0.000000 0.236224 0.960000
0.108379 0.236224 0.960000
0.236870 0.236224 0.960000
0.373999 0.236224 0.960000
0.515000 0.236224 0.960000
0.656001 0.236224 0.960000
0.793130 0.236224 0.960000
0.921621 0.236224 0.960000
1.000000 0.236224 0.960000
0.000000 0.369127 0.960000
0.108379 0.369127 0.960000
0.236870 0.369127 0.960000
0.373999 0.369127 0.960000
0.515000 0.369127 0.960000
0.656001 0.369127 0.960000
0.793130 0.369127 0.960000
0.921621 0.369127 0.960000
1.000000 0.369127 0.960000
0.000000 0.505000 0.960000
0.108379 0.505000 0.960000
0.236870 0.505000 0.960000
0.373999 0.505000 0.960000
0.515000 0.505000 0.960000
0.656001 0.505000 0.960000
0.793130 0.505000 0.960000
0.921621 0.505000 0.960000
1.000000 0.505000 0.960000
0.000000 0.640873 0.960000
0.108379 0.640873 0.960000
0.236870 0.640873 0.960000
0.373999 0.640873 0.960000
0.515000 0.640873 0.960000
0.656001 0.640873 0.960000
0.793130 0.640873 0.960000
0.921621 0.640873 0.960000
1.000000 0.640873 0.960000
0.000000 0.773776 0.960000
0.108379 0.773776 0.960000
0.236870 0.773776 0.960000
0.373999 0.773776 0.960000
0.515000 0.773776 0.960000
0.656001 0.773776 0.960000
0.793130 0.773776 0.960000
0.921621 0.773776 0.960000
1.000000 0.773776 0.960000
0.000000 0.899967 0.960000
0.108379 0.899967 0.960000
0.236870 0.899967 0.960000
0.373999 0.899967 0.960000
0.515000 0.899967 0.960000
0.656001 0.899967 0.960000
0.793130 0.899967 0.960000
0.921621 0.899967 0.960000
1.000000 0.899967 0.960000
0.000000 1.000000 0.960000
0.108379 1.000000 0.960000
0.236870 1.000000 0.960000
0.373999 1.000000 0.960000
0.515000 1.000000 0.960000
0.656001 1.000000 0.960000
0.793130 1.000000 0.960000
0.921621 1.000000 0.960000
1.000000 1.000000 0.960000
