campaign/color/luts/locos_materos_editorial_film.cube
TITLE "Locos Materos Editorial Film"
LUT_3D_SIZE 9
DOMAIN_MIN 0.0 0.0 0.0
DOMAIN_MAX 1.0 1.0 1.0
0.020400 0.020000 0.024500
0.135895 0.020000 0.024500
0.259688 0.020000 0.024500
0.386699 0.020000 0.024500
0.515100 0.020000 0.024500
0.643501 0.020000 0.024500
0.770512 0.020000 0.024500
0.894305 0.020000 0.024500
1.000000 0.020000 0.024500
0.020400 0.133230 0.024500
0.135895 0.133230 0.024500
0.259688 0.133230 0.024500
0.386699 0.133230 0.024500
0.515100 0.133230 0.024500
0.643501 0.133230 0.024500
0.770512 0.133230 0.024500
0.894305 0.133230 0.024500
1.000000 0.133230 0.024500
0.020400 0.254596 0.024500
0.135895 0.254596 0.024500
0.259688 0.254596 0.024500
0.386699 0.254596 0.024500
0.515100 0.254596 0.024500
0.643501 0.254596 0.024500
0.770512 0.254596 0.024500
0.894305 0.254596 0.024500
1.000000 0.254596 0.024500
0.020400 0.379117 0.024500
0.135895 0.379117 0.024500
0.259688 0.379117 0.024500
0.386699 0.379117 0.024500
0.515100 0.379117 0.024500
0.643501 0.379117 0.024500
0.770512 0.379117 0.024500
0.894305 0.379117 0.024500
1.000000 0.379117 0.024500
0.020400 0.505000 0.024500
0.135895 0.505000 0.024500
0.259688 0.505000 0.024500
0.386699 0.505000 0.024500
0.515100 0.505000 0.024500
0.643501 0.505000 0.024500
0.770512 0.505000 0.024500
0.894305 0.505000 0.024500
1.000000 0.505000 0.024500
0.020400 0.630883 0.024500
0.135895 0.630883 0.024500
0.259688 0.630883 0.024500
0.386699 0.630883 0.024500
0.515100 0.630883 0.024500
0.643501 0.630883 0.024500
0.770512 0.630883 0.024500
0.894305 0.630883 0.024500
1.000000 0.630883 0.024500
0.020400 0.755404 0.024500
0.135895 0.755404 0.024500
0.259688 0.755404 0.024500
0.386699 0.755404 0.024500
0.515100 0.755404 0.024500
0.643501 0.755404 0.024500
0.770512 0.755404 0.024500
0.894305 0.755404 0.024500
1.000000 0.755404 0.024500
0.020400 0.876770 0.024500
0.135895 0.876770 0.024500
0.259688 0.876770 0.024500
0.386699 0.876770 0.024500
0.515100 0.876770 0.024500
0.643501 0.876770 0.024500
0.770512 0.876770 0.024500
0.894305 0.876770 0.024500
1.000000 0.876770 0.024500
0.020400 0.990000 0.024500
0.135895 0.990000 0.024500
0.259688 0.990000 0.024500
0.386699 0.990000 0.024500
0.515100 0.990000 0.024500
0.643501 0.990000 0.024500
0.770512 0.990000 0.024500
0.894305 0.990000 0.024500
1.000000 0.990000 0.024500
0.020400 0.020000 0.138153
0.135895 0.020000 0.138153
0.259688 0.020000 0.138153
0.386699 0.020000 0.138153
0.515100 0.020000 0.138153
0.643501 0.020000 0.138153
0.770512 0.020000 0.138153
0.894305 0.020000 0.138153
1.000000 0.020000 0.138153
0.020400 0.133230 0.138153
0.135895 0.133230 0.138153
0.259688 0.133230 0.138153
0.386699 0.133230 0.138153
0.515100 0.133230 0.138153
0.643501 0.133230 0.138153
0.770512 0.133230 0.138153
0.894305 0.133230 0.138153
1.000000 0.133230 0.138153
0.020400 0.254596 0.138153
0.135895 0.254596 0.138153
0.259688 0.254596 0.138153
0.386699 0.254596 0.138153
0.515100 0.254596 0.138153
0.643501 0.254596 0.138153
0.770512 0.254596 0.138153
0.894305 0.254596 0.138153
1.000000 0.254596 0.138153
0.020400 0.379117 0.138153
0.135895 0.379117 0.138153
0.259688 0.379117 0.138153
0.386699 0.379117 0.138153
0.515100 0.379117 0.138153
0.643501 0.379117 0.138153
0.770512 0.379117 0.138153
0.894305 0.379117 0.138153
1.000000 0.379117 0.138153
0.020400 0.505000 0.138153
0.135895 0.505000 0.138153
0.259688 0.505000 0.138153
0.386699 0.505000 0.138153
0.515100 0.505000 0.138153
0.643501 0.505000 0.138153
0.770512 0.505000 0.138153
0.894305 0.505000 0.138153
1.000000 0.505000 0.138153
0.020400 0.630883 0.138153
0.135895 0.630883 0.138153
0.259688 0.630883 0.138153
0.386699 0.630883 0.138153
0.515100 0.630883 0.138153
0.643501 0.630883 0.138153
0.770512 0.630883 0.138153
0.894305 0.630883 0.138153
1.000000 0.630883 0.138153
0.020400 0.755404 0.138153
0.135895 0.755404 0.138153
0.259688 0.755404 0.138153
0.386699 0.755404 0.138153
0.515100 0.755404 0.138153
0.643501 0.755404 0.138153
0.770512 0.755404 0.138153
0.894305 0.755404 0.138153
1.000000 0.755404 0.138153
0.020400 0.876770 0.138153
0.135895 0.876770 0.138153
0.259688 0.876770 0.138153
0.386699 0.876770 0.138153
0.515100 0.876770 0.138153
0.643501 0.876770 0.138153
0.770512 0.876770 0.138153
0.894305 0.876770 0.138153
1.000000 0.876770 0.138153
0.020400 0.990000 0.138153
0.135895 0.990000 0.138153
0.259688 0.990000 0.138153
0.386699 0.990000 0.138153
0.515100 0.990000 0.138153
0.643501 0.990000 0.138153
0.770512 0.990000 0.138153
0.894305 0.990000 0.138153
1.000000 0.990000 0.138153
0.020400 0.020000 0.255845
0.135895 0.020000 0.255845
0.259688 0.020000 0.255845
0.386699 0.020000 0.255845
0.515100 0.020000 0.255845
0.643501 0.020000 0.255845
0.770512 0.020000 0.255845
0.894305 0.020000 0.255845
1.000000 0.020000 0.255845
0.020400 0.133230 0.255845
0.135895 0.133230 0.255845
0.259688 0.133230 0.255845
0.386699 0.133230 0.255845
0.515100 0.133230 0.255845
0.643501 0.133230 0.255845
0.770512 0.133230 0.255845
0.894305 0.133230 0.255845
1.000000 0.133230 0.255845
0.020400 0.254596 0.255845
0.135895 0.254596 0.255845
0.259688 0.254596 0.255845
0.386699 0.254596 0.255845
0.515100 0.254596 0.255845
0.643501 0.254596 0.255845
0.770512 0.254596 0.255845
0.894305 0.254596 0.255845
1.000000 0.254596 0.255845
0.020400 0.379117 0.255845
0.135895 0.379117 0.255845
0.259688 0.379117 0.255845
0.386699 0.379117 0.255845
0.515100 0.379117 0.255845
0.643501 0.379117 0.255845
0.770512 0.379117 0.255845
0.894305 0.379117 0.255845
1.000000 0.379117 0.255845
0.020400 0.505000 0.255845
0.135895 0.505000 0.255845
0.259688 0.505000 0.255845
0.386699 0.505000 0.255845
0.515100 0.505000 0.255845
0.643501 0.505000 0.255845
0.770512 0.505000 0.255845
0.894305 0.505000 0.255845
1.000000 0.505000 0.255845
0.020400 0.630883 0.255845
0.135895 0.630883 0.255845
0.259688 0.630883 0.255845
0.386699 0.630883 0.255845
0.515100 0.630883 0.255845
0.643501 0.630883 0.255845
0.770512 0.630883 0.255845
0.894305 0.630883 0.255845
1.000000 0.630883 0.255845
0.020400 0.755404 0.255845
0.135895 0.755404 0.255845
0.259688 0.755404 0.255845
0.386699 0.755404 0.255845
0.515100 0.755404 0.255845
0.643501 0.755404 0.255845
0.770512 0.755404 0.255845
0.894305 0.755404 0.255845
1.000000 0.755404 0.255845
0.020400 0.876770 0.255845
0.135895 0.876770 0.255845
0.259688 0.876770 0.255845
0.386699 0.876770 0.255845
0.515100 0.876770 0.255845
0.643501 0.876770 0.255845
0.770512 0.876770 0.255845
0.894305 0.876770 0.255845
1.000000 0.876770 0.255845
0.020400 0.990000 0.255845
0.135895 0.990000 0.255845
0.259688 0.990000 0.255845
0.386699 0.990000 0.255845
0.515100 0.990000 0.255845
0.643501 0.990000 0.255845
0.770512 0.990000 0.255845
0.894305 0.990000 0.255845
1.000000 0.990000 0.255845
0.020400 0.020000 0.375050
0.135895 0.020000 0.375050
0.259688 0.020000 0.375050
0.386699 0.020000 0.375050
0.515100 0.020000 0.375050
0.643501 0.020000 0.375050
0.770512 0.020000 0.375050
0.894305 0.020000 0.375050
1.000000 0.020000 0.375050
0.020400 0.133230 0.375050
0.135895 0.133230 0.375050
0.259688 0.133230 0.375050
0.386699 0.133230 0.375050
0.515100 0.133230 0.375050
0.643501 0.133230 0.375050
0.770512 0.133230 0.375050
0.894305 0.133230 0.375050
1.000000 0.133230 0.375050
0.020400 0.254596 0.375050
0.135895 0.254596 0.375050
0.259688 0.254596 0.375050
0.386699 0.254596 0.375050
0.515100 0.254596 0.375050
0.643501 0.254596 0.375050
0.770512 0.254596 0.375050
0.894305 0.254596 0.375050
1.000000 0.254596 0.375050
0.020400 0.379117 0.375050
0.135895 0.379117 0.375050
0.259688 0.379117 0.375050
0.386699 0.379117 0.375050
0.515100 0.379117 0.375050
0.643501 0.379117 0.375050
0.770512 0.379117 0.375050
0.894305 0.379117 0.375050
1.000000 0.379117 0.375050
0.020400 0.505000 0.375050
0.135895 0.505000 0.375050
0.259688 0.505000 0.375050
0.386699 0.505000 0.375050
0.515100 0.505000 0.375050
0.643501 0.505000 0.375050
0.770512 0.505000 0.375050
0.894305 0.505000 0.375050
1.000000 0.505000 0.375050
0.020400 0.630883 0.375050
0.135895 0.630883 0.375050
0.259688 0.630883 0.375050
0.386699 0.630883 0.375050
0.515100 0.630883 0.375050
0.643501 0.630883 0.375050
0.770512 0.630883 0.375050
0.894305 0.630883 0.375050
1.000000 0.630883 0.375050
0.020400 0.755404 0.375050
0.135895 0.755404 0.375050
0.259688 0.755404 0.375050
0.386699 0.755404 0.375050
0.515100 0.755404 0.375050
0.643501 0.755404 0.375050
0.770512 0.755404 0.375050
0.894305 0.755404 0.375050
1.000000 0.755404 0.375050
0.020400 0.876770 0.375050
0.135895 0.876770 0.375050
0.259688 0.876770 0.375050
0.386699 0.876770 0.375050
0.515100 0.876770 0.375050
0.643501 0.876770 0.375050
0.770512 0.876770 0.375050
0.894305 0.876770 0.375050
1.000000 0.876770 0.375050
0.020400 0.990000 0.375050
0.135895 0.990000 0.375050
0.259688 0.990000 0.375050
0.386699 0.990000 0.375050
0.515100 0.990000 0.375050
0.643501 0.990000 0.375050
0.770512 0.990000 0.375050
0.894305 0.990000 0.375050
1.000000 0.990000 0.375050
0.020400 0.020000 0.494900
0.135895 0.020000 0.494900
0.259688 0.020000 0.494900
0.386699 0.020000 0.494900
0.515100 0.020000 0.494900
0.643501 0.020000 0.494900
0.770512 0.020000 0.494900
0.894305 0.020000 0.494900
1.000000 0.020000 0.494900
0.020400 0.133230 0.494900
0.135895 0.133230 0.494900
0.259688 0.133230 0.494900
0.386699 0.133230 0.494900
0.515100 0.133230 0.494900
0.643501 0.133230 0.494900
0.770512 0.133230 0.494900
0.894305 0.133230 0.494900
1.000000 0.133230 0.494900
0.020400 0.254596 0.494900
0.135895 0.254596 0.494900
0.259688 0.254596 0.494900
0.386699 0.254596 0.494900
0.515100 0.254596 0.494900
0.643501 0.254596 0.494900
0.770512 0.254596 0.494900
0.894305 0.254596 0.494900
1.000000 0.254596 0.494900
0.020400 0.379117 0.494900
0.135895 0.379117 0.494900
0.259688 0.379117 0.494900
0.386699 0.379117 0.494900
0.515100 0.379117 0.494900
0.643501 0.379117 0.494900
0.770512 0.379117 0.494900
0.894305 0.379117 0.494900
1.000000 0.379117 0.494900
0.020400 0.505000 0.494900
0.135895 0.505000 0.494900
0.259688 0.505000 0.494900
0.386699 0.505000 0.494900
0.515100 0.505000 0.494900
0.643501 0.505000 0.494900
0.770512 0.505000 0.494900
0.894305 0.505000 0.494900
1.000000 0.505000 0.494900
0.020400 0.630883 0.494900
0.135895 0.630883 0.494900
0.259688 0.630883 0.494900
0.386699 0.630883 0.494900
0.515100 0.630883 0.494900
0.643501 0.630883 0.494900
0.770512 0.630883 0.494900
0.894305 0.630883 0.494900
1.000000 0.630883 0.494900
0.020400 0.755404 0.494900
0.135895 0.755404 0.494900
0.259688 0.755404 0.494900
0.386699 0.755404 0.494900
0.515100 0.755404 0.494900
0.643501 0.755404 0.494900
0.770512 0.755404 0.494900
0.894305 0.755404 0.494900
1.000000 0.755404 0.494900
0.020400 0.876770 0.494900
0.135895 0.876770 0.494900
0.259688 0.876770 0.494900
0.386699 0.876770 0.494900
0.515100 0.876770 0.494900
0.643501 0.876770 0.494900
0.770512 0.876770 0.494900
0.894305 0.876770 0.494900
1.000000 0.876770 0.494900
0.020400 0.990000 0.494900
0.135895 0.990000 0.494900
0.259688 0.990000 0.494900
0.386699 0.990000 0.494900
0.515100 0.990000 0.494900
0.643501 0.990000 0.494900
0.770512 0.990000 0.494900
0.894305 0.990000 0.494900
1.000000 0.990000 0.494900
0.020400 0.020000 0.614750
0.135895 0.020000 0.614750
0.259688 0.020000 0.614750
0.386699 0.020000 0.614750
0.515100 0.020000 0.614750
0.643501 0.020000 0.614750
0.770512 0.020000 0.614750
0.894305 0.020000 0.614750
1.000000 0.020000 0.614750
0.020400 0.133230 0.614750
0.135895 0.133230 0.614750
0.259688 0.133230 0.614750
0.386699 0.133230 0.614750
0.515100 0.133230 0.614750
0.643501 0.133230 0.614750
0.770512 0.133230 0.614750
0.894305 0.133230 0.614750
1.000000 0.133230 0.614750
0.020400 0.254596 0.614750
0.135895 0.254596 0.614750
0.259688 0.254596 0.614750
0.386699 0.254596 0.614750
0.515100 0.254596 0.614750
0.643501 0.254596 0.614750
0.770512 0.254596 0.614750
0.894305 0.254596 0.614750
1.000000 0.254596 0.614750
0.020400 0.379117 0.614750
0.135895 0.379117 0.614750
0.259688 0.379117 0.614750
0.386699 0.379117 0.614750
0.515100 0.379117 0.614750
0.643501 0.379117 0.614750
0.770512 0.379117 0.614750
0.894305 0.379117 0.614750
1.000000 0.379117 0.614750
0.020400 0.505000 0.614750
0.135895 0.505000 0.614750
0.259688 0.505000 0.614750
0.386699 0.505000 0.614750
0.515100 0.505000 0.614750
0.643501 0.505000 0.614750
0.770512 0.505000 0.614750
0.894305 0.505000 0.614750
1.000000 0.505000 0.614750
0.020400 0.630883 0.614750
0.135895 0.630883 0.614750
0.259688 0.630883 0.614750
0.386699 0.630883 0.614750
0.515100 0.630883 0.614750
0.643501 0.630883 0.614750
0.770512 0.630883 0.614750
0.894305 0.630883 0.614750
1.000000 0.630883 0.614750
0.020400 0.755404 0.614750
0.135895 0.755404 0.614750
0.259688 0.755404 0.614750
0.386699 0.755404 0.614750
0.515100 0.755404 0.614750
0.643501 0.755404 0.614750
0.770512 0.755404 0.614750
0.894305 0.755404 0.614750
1.000000 0.755404 0.614750
0.020400 0.876770 0.614750
0.135895 0.876770 0.614750
0.259688 0.876770 0.614750
0.386699 0.876770 0.614750
0.515100 0.876770 0.614750
0.643501 0.876770 0.614750
0.770512 0.876770 0.614750
0.894305 0.876770 0.614750
1.000000 0.876770 0.614750
0.020400 0.990000 0.614750
0.135895 0.990000 0.614750
0.259688 0.990000 0.614750
0.386699 0.990000 0.614750
0.515100 0.990000 0.614750
0.643501 0.990000 0.614750
0.770512 0.990000 0.614750
0.894305 0.990000 0.614750
1.000000 0.990000 0.614750
0.020400 0.020000 0.733955
0.135895 0.020000 0.733955
0.259688 0.020000 0.733955
0.386699 0.020000 0.733955
0.515100 0.020000 0.733955
0.643501 0.020000 0.733955
0.770512 0.020000 0.733955
0.894305 0.020000 0.733955
1.000000 0.020000 0.733955
0.020400 0.133230 0.733955
0.135895 0.133230 0.733955
0.259688 0.133230 0.733955
0.386699 0.133230 0.733955
0.515100 0.133230 0.733955
0.643501 0.133230 0.733955
0.770512 0.133230 0.733955
0.894305 0.133230 0.733955
1.000000 0.133230 0.733955
0.020400 0.254596 0.733955
0.135895 0.254596 0.733955
0.259688 0.254596 0.733955
0.386699 0.254596 0.733955
0.515100 0.254596 0.733955
0.643501 0.254596 0.733955
0.770512 0.254596 0.733955
0.894305 0.254596 0.733955
1.000000 0.254596 0.733955
0.020400 0.379117 0.733955
0.135895 0.379117 0.733955
0.259688 0.379117 0.733955
0.386699 0.379117 0.733955
0.515100 0.379117 0.733955
0.643501 0.379117 0.733955
0.770512 0.379117 0.733955
0.894305 0.379117 0.733955
1.000000 0.379117 0.733955
0.020400 0.505000 0.733955
0.135895 0.505000 0.733955
0.259688 0.505000 0.733955
0.386699 0.505000 0.733955
0.515100 0.505000 0.733955
0.643501 0.505000 0.733955
0.770512 0.505000 0.733955
0.894305 0.505000 0.733955
1.000000 0.505000 0.733955
0.020400 0.630883 0.733955
0.135895 0.630883 0.733955
0.259688 0.630883 0.733955
0.386699 0.630883 0.733955
0.515100 0.630883 0.733955
0.643501 0.630883 0.733955
0.770512 0.630883 0.733955
0.894305 0.630883 0.733955
1.000000 0.630883 0.733955
0.020400 0.755404 0.733955
0.135895 0.755404 0.733955
0.259688 0.755404 0.733955
0.386699 0.755404 0.733955
0.515100 0.755404 0.733955
0.643501 0.755404 0.733955
0.770512 0.755404 0.733955
0.894305 0.755404 0.733955
1.000000 0.755404 0.733955
0.020400 0.876770 0.733955
0.135895 0.876770 0.733955
0.259688 0.876770 0.733955
0.386699 0.876770 0.733955
0.515100 0.876770 0.733955
0.643501 0.876770 0.733955
0.770512 0.876770 0.733955
0.894305 0.876770 0.733955
1.000000 0.876770 0.733955
0.020400 0.990000 0.733955
0.135895 0.990000 0.733955
0.259688 0.990000 0.733955
0.386699 0.990000 0.733955
0.515100 0.990000 0.733955
0.643501 0.990000 0.733955
0.770512 0.990000 0.733955
0.894305 0.990000 0.733955
1.000000 0.990000 0.733955
0.020400 0.020000 0.851647
0.135895 0.020000 0.851647
0.259688 0.020000 0.851647
0.386699 0.020000 0.851647
0.515100 0.020000 0.851647
0.643501 0.020000 0.851647
0.770512 0.020000 0.851647
0.894305 0.020000 0.851647
1.000000 0.020000 0.851647
0.020400 0.133230 0.851647
0.135895 0.133230 0.851647
0.259688 0.133230 0.851647
0.386699 0.133230 0.851647
0.515100 0.133230 0.851647
0.643501 0.133230 0.851647
0.770512 0.133230 0.851647
0.894305 0.133230 0.851647
1.000000 0.133230 0.851647
0.020400 0.254596 0.851647
0.135895 0.254596 0.851647
0.259688 0.254596 0.851647
0.386699 0.254596 0.851647
0.515100 0.254596 0.851647
0.643501 0.254596 0.851647
0.770512 0.254596 0.851647
0.894305 0.254596 0.851647
1.000000 0.254596 0.851647
0.020400 0.379117 0.851647
0.135895 0.379117 0.851647
0.259688 0.379117 0.851647
0.386699 0.379117 0.851647
0.515100 0.379117 0.851647
0.643501 0.379117 0.851647
0.770512 0.379117 0.851647
0.894305 0.379117 0.851647
1.000000 0.379117 0.851647
0.020400 0.505000 0.851647
0.135895 0.505000 0.851647
0.259688 0.505000 0.851647
0.386699 0.505000 0.851647
0.515100 0.505000 0.851647
0.643501 0.505000 0.851647
0.770512 0.505000 0.851647
0.894305 0.505000 0.851647
1.000000 0.505000 0.851647
0.020400 0.630883 0.851647
0.135895 0.630883 0.851647
0.259688 0.630883 0.851647
0.386699 0.630883 0.851647
0.515100 0.630883 0.851647
0.643501 0.630883 0.851647
0.770512 0.630883 0.851647
0.894305 0.630883 0.851647
1.000000 0.630883 0.851647
0.020400 0.755404 0.851647
0.135895 0.755404 0.851647
0.259688 0.755404 0.851647
0.386699 0.755404 0.851647
0.515100 0.755404 0.851647
0.643501 0.755404 0.851647
0.770512 0.755404 0.851647
0.894305 0.755404 0.851647
1.000000 0.755404 0.851647
0.020400 0.876770 0.851647
0.135895 0.876770 0.851647
0.259688 0.876770 0.851647
0.386699 0.876770 0.851647
0.515100 0.876770 0.851647
0.643501 0.876770 0.851647
0.770512 0.876770 0.851647
0.894305 0.876770 0.851647
1.000000 0.876770 0.851647
0.020400 0.990000 0.851647
0.135895 0.990000 0.851647
0.259688 0.990000 0.851647
0.386699 0.990000 0.851647
0.515100 0.990000 0.851647
0.643501 0.990000 0.851647
0.770512 0.990000 0.851647
0.894305 0.990000 0.851647
1.000000 0.990000 0.851647
0.020400 0.020000 0.965300
0.135895 0.020000 0.965300
0.259688 0.020000 0.965300
0.386699 0.020000 0.965300
0.515100 0.020000 0.965300
0.643501 0.020000 0.965300
0.770512 0.020000 0.965300
0.894305 0.020000 0.965300
1.000000 0.020000 0.965300
0.020400 0.133230 0.965300
0.135895 0.133230 0.965300
0.259688 0.133230 0.965300
0.386699 0.133230 0.965300
0.515100 0.133230 0.965300
0.643501 0.133230 0.965300
0.770512 0.133230 0.965300
0.894305 0.133230 0.965300
1.000000 0.133230 0.965300
0.020400 0.254596 0.965300
0.135895 0.254596 0.965300
0.259688 0.254596 0.965300
0.386699 0.254596 0.965300
0.515100 0.254596 0.965300
0.643501 0.254596 0.965300
0.770512 0.254596 0.965300
0.894305 0.254596 0.965300
1.000000 0.254596 0.965300
0.020400 0.379117 0.965300
0.135895 0.379117 0.965300
0.259688 0.379117 0.965300
0.386699 0.379117 0.965300
0.515100 0.379117 0.965300
0.643501 0.379117 0.965300
0.770512 0.379117 0.965300
0.894305 0.379117 0.965300
1.000000 0.379117 0.965300
0.020400 0.505000 0.965300
0.135895 0.505000 0.965300
0.259688 0.505000 0.965300
0.386699 0.505000 0.965300
0.515100 0.505000 0.965300
0.643501 0.505000 0.965300
0.770512 0.505000 0.965300
0.894305 0.505000 0.965300
1.000000 0.505000 0.965300
0.020400 0.630883 0.965300
0.135895 0.630883 0.965300
0.259688 0.630883 0.965300
0.386699 0.630883 0.965300
0.515100 0.630883 0.965300
0.643501 0.630883 0.965300
0.770512 0.630883 0.965300
0.894305 0.630883 0.965300
1.000000 0.630883 0.965300
0.020400 0.755404 0.965300
0.135895 0.755404 0.965300
0.259688 0.755404 0.965300
0.386699 0.755404 0.965300
0.515100 0.755404 0.965300
0.643501 0.755404 0.965300
0.770512 0.755404 0.965300
0.894305 0.755404 0.965300
1.000000 0.755404 0.965300
0.020400 0.876770 0.965300
0.135895 0.876770 0.965300
0.259688 0.876770 0.965300
0.386699 0.876770 0.965300
0.515100 0.876770 0.965300
0.643501 0.876770 0.965300
0.770512 0.876770 0.965300
0.894305 0.876770 0.965300
1.000000 0.876770 0.965300
0.020400 0.990000 0.965300
0.135895 0.990000 0.965300
0.259688 0.990000 0.965300
0.386699 0.990000 0.965300
0.515100 0.990000 0.965300
0.643501 0.990000 0.965300
0.770512 0.990000 0.965300
0.894305 0.990000 0.965300
1.000000 0.990000 0.965300
