campaign/color/luts/locos_materos_editorial_film.cube
TITLE "Locos Materos Editorial Film"
LUT_3D_SIZE 33
DOMAIN_MIN 0.0 0.0 0.0
DOMAIN_MAX 1.0 1.0 1.0
0.020400 0.020000 0.024500
0.047459 0.020000 0.024500
0.076248 0.020000 0.024500
0.105804 0.020000 0.024500
0.135895 0.020000 0.024500
0.166397 0.020000 0.024500
0.197233 0.020000 0.024500
0.228345 0.020000 0.024500
0.259688 0.020000 0.024500
0.291224 0.020000 0.024500
0.322923 0.020000 0.024500
0.354757 0.020000 0.024500
0.386699 0.020000 0.024500
0.418726 0.020000 0.024500
0.450816 0.020000 0.024500
0.482948 0.020000 0.024500
0.515100 0.020000 0.024500
0.547252 0.020000 0.024500
0.579384 0.020000 0.024500
0.611474 0.020000 0.024500
0.643501 0.020000 0.024500
0.675443 0.020000 0.024500
0.707276 0.020000 0.024500
0.738976 0.020000 0.024500
0.770512 0.020000 0.024500
0.801855 0.020000 0.024500
0.832967 0.020000 0.024500
0.863802 0.020000 0.024500
0.894305 0.020000 0.024500
0.924396 0.020000 0.024500
0.953952 0.020000 0.024500
0.982741 0.020000 0.024500
1.000000 0.020000 0.024500
0.020400 0.046528 0.024500
0.047459 0.046528 0.024500
0.076248 0.046528 0.024500
0.105804 0.046528 0.024500
0.135895 0.046528 0.024500
0.166397 0.046528 0.024500
0.197233 0.046528 0.024500
0.228345 0.046528 0.024500
0.259688 0.046528 0.024500
0.291224 0.046528 0.024500
0.322923 0.046528 0.024500
0.354757 0.046528 0.024500
0.386699 0.046528 0.024500
0.418726 0.046528 0.024500
0.450816 0.046528 0.024500
0.482948 0.046528 0.024500
0.515100 0.046528 0.024500
0.547252 0.046528 0.024500
0.579384 0.046528 0.024500
0.611474 0.046528 0.024500
0.643501 0.046528 0.024500
0.675443 0.046528 0.024500
0.707276 0.046528 0.024500
0.738976 0.046528 0.024500
0.770512 0.046528 0.024500
0.801855 0.046528 0.024500
0.832967 0.046528 0.024500
0.863802 0.046528 0.024500
0.894305 0.046528 0.024500
0.924396 0.046528 0.024500
0.953952 0.046528 0.024500
0.982741 0.046528 0.024500
1.000000 0.046528 0.024500
0.020400 0.074752 0.024500
0.047459 0.074752 0.024500
0.076248 0.074752 0.024500
0.105804 0.074752 0.024500
0.135895 0.074752 0.024500
0.166397 0.074752 0.024500
0.197233 0.074752 0.024500
0.228345 0.074752 0.024500
0.259688 0.074752 0.024500
0.291224 0.074752 0.024500
0.322923 0.074752 0.024500
0.354757 0.074752 0.024500
0.386699 0.074752 0.024500
0.418726 0.074752 0.024500
0.450816 0.074752 0.024500
0.482948 0.074752 0.024500
0.515100 0.074752 0.024500
0.547252 0.074752 0.024500
0.579384 0.074752 0.024500
0.611474 0.074752 0.024500
0.643501 0.074752 0.024500
0.675443 0.074752 0.024500
0.707276 0.074752 0.024500
0.738976 0.074752 0.024500
0.770512 0.074752 0.024500
0.801855 0.074752 0.024500
0.832967 0.074752 0.024500
0.863802 0.074752 0.024500
0.894305 0.074752 0.024500
0.924396 0.074752 0.024500
0.953952 0.074752 0.024500
0.982741 0.074752 0.024500
1.000000 0.074752 0.024500
0.020400 0.103729 0.024500
0.047459 0.103729 0.024500
0.076248 0.103729 0.024500
0.105804 0.103729 0.024500
0.135895 0.103729 0.024500
0.166397 0.103729 0.024500
0.197233 0.103729 0.024500
0.228345 0.103729 0.024500
0.259688 0.103729 0.024500
0.291224 0.103729 0.024500
0.322923 0.103729 0.024500
0.354757 0.103729 0.024500
0.386699 0.103729 0.024500
0.418726 0.103729 0.024500
0.450816 0.103729 0.024500
0.482948 0.103729 0.024500
0.515100 0.103729 0.024500
0.547252 0.103729 0.024500
0.579384 0.103729 0.024500
0.611474 0.103729 0.024500
0.643501 0.103729 0.024500
0.675443 0.103729 0.024500
0.707276 0.103729 0.024500
0.738976 0.103729 0.024500
0.770512 0.103729 0.024500
0.801855 0.103729 0.024500
0.832967 0.103729 0.024500
0.863802 0.103729 0.024500
0.894305 0.103729 0.024500
0.924396 0.103729 0.024500
0.953952 0.103729 0.024500
0.982741 0.103729 0.024500
1.000000 0.103729 0.024500
0.020400 0.133230 0.024500
0.047459 0.133230 0.024500
0.076248 0.133230 0.024500
0.105804 0.133230 0.024500
0.135895 0.133230 0.024500
0.166397 0.133230 0.024500
0.197233 0.133230 0.024500
0.228345 0.133230 0.024500
0.259688 0.133230 0.024500
0.291224 0.133230 0.024500
0.322923 0.133230 0.024500
0.354757 0.133230 0.024500
0.386699 0.133230 0.024500
0.418726 0.133230 0.024500
0.450816 0.133230 0.024500
0.482948 0.133230 0.024500
0.515100 0.133230 0.024500
0.547252 0.133230 0.024500
0.579384 0.133230 0.024500
0.611474 0.133230 0.024500
0.643501 0.133230 0.024500
0.675443 0.133230 0.024500
0.707276 0.133230 0.024500
0.738976 0.133230 0.024500
0.770512 0.133230 0.024500
0.801855 0.133230 0.024500
0.832967 0.133230 0.024500
0.863802 0.133230 0.024500
0.894305 0.133230 0.024500
0.924396 0.133230 0.024500
0.953952 0.133230 0.024500
0.982741 0.133230 0.024500
1.000000 0.133230 0.024500
0.020400 0.163135 0.024500
0.047459 0.163135 0.024500
0.076248 0.163135 0.024500
0.105804 0.163135 0.024500
0.135895 0.163135 0.024500
0.166397 0.163135 0.024500
0.197233 0.163135 0.024500
0.228345 0.163135 0.024500
0.259688 0.163135 0.024500
0.291224 0.163135 0.024500
0.322923 0.163135 0.024500
0.354757 0.163135 0.024500
0.386699 0.163135 0.024500
0.418726 0.163135 0.024500
0.450816 0.163135 0.024500
0.482948 0.163135 0.024500
0.515100 0.163135 0.024500
0.547252 0.163135 0.024500
0.579384 0.163135 0.024500
0.611474 0.163135 0.024500
0.643501 0.163135 0.024500
0.675443 0.163135 0.024500
0.707276 0.163135 0.024500
0.738976 0.163135 0.024500
0.770512 0.163135 0.024500
0.801855 0.163135 0.024500
0.832967 0.163135 0.024500
0.863802 0.163135 0.024500
0.894305 0.163135 0.024500
0.924396 0.163135 0.024500
0.953952 0.163135 0.024500
0.982741 0.163135 0.024500
1.000000 0.163135 0.024500
0.020400 0.193366 0.024500
0.047459 0.193366 0.024500
0.076248 0.193366 0.024500
0.105804 0.193366 0.024500
0.135895 0.193366 0.024500
0.166397 0.193366 0.024500
0.197233 0.193366 0.024500
0.228345 0.193366 0.024500
0.259688 0.193366 0.024500
0.291224 0.193366 0.024500
0.322923 0.193366 0.024500
0.354757 0.193366 0.024500
0.386699 0.193366 0.024500
0.418726 0.193366 0.024500
0.450816 0.193366 0.024500
0.482948 0.193366 0.024500
0.515100 0.193366 0.024500
0.547252 0.193366 0.024500
0.579384 0.193366 0.024500
0.611474 0.193366 0.024500
0.643501 0.193366 0.024500
0.675443 0.193366 0.024500
0.707276 0.193366 0.024500
0.738976 0.193366 0.024500
0.770512 0.193366 0.024500
0.801855 0.193366 0.024500
0.832967 0.193366 0.024500
0.863802 0.193366 0.024500
0.894305 0.193366 0.024500
0.924396 0.193366 0.024500
0.953952 0.193366 0.024500
0.982741 0.193366 0.024500
1.000000 0.193366 0.024500
0.020400 0.223868 0.024500
0.047459 0.223868 0.024500
0.076248 0.223868 0.024500
0.105804 0.223868 0.024500
0.135895 0.223868 0.024500
0.166397 0.223868 0.024500
0.197233 0.223868 0.024500
0.228345 0.223868 0.024500
0.259688 0.223868 0.024500
0.291224 0.223868 0.024500
0.322923 0.223868 0.024500
0.354757 0.223868 0.024500
0.386699 0.223868 0.024500
0.418726 0.223868 0.024500
0.450816 0.223868 0.024500
0.482948 0.223868 0.024500
0.515100 0.223868 0.024500
0.547252 0.223868 0.024500
0.579384 0.223868 0.024500
0.611474 0.223868 0.024500
0.643501 0.223868 0.024500
0.675443 0.223868 0.024500
0.707276 0.223868 0.024500
0.738976 0.223868 0.024500
0.770512 0.223868 0.024500
0.801855 0.223868 0.024500
0.832967 0.223868 0.024500
0.863802 0.223868 0.024500
0.894305 0.223868 0.024500
0.924396 0.223868 0.024500
0.953952 0.223868 0.024500
0.982741 0.223868 0.024500
1.000000 0.223868 0.024500
0.020400 0.254596 0.024500
0.047459 0.254596 0.024500
0.076248 0.254596 0.024500
0.105804 0.254596 0.024500
0.135895 0.254596 0.024500
0.166397 0.254596 0.024500
0.197233 0.254596 0.024500
0.228345 0.254596 0.024500
0.259688 0.254596 0.024500
0.291224 0.254596 0.024500
0.322923 0.254596 0.024500
0.354757 0.254596 0.024500
0.386699 0.254596 0.024500
0.418726 0.254596 0.024500
0.450816 0.254596 0.024500
0.482948 0.254596 0.024500
0.515100 0.254596 0.024500
0.547252 0.254596 0.024500
0.579384 0.254596 0.024500
0.611474 0.254596 0.024500
0.643501 0.254596 0.024500
0.675443 0.254596 0.024500
0.707276 0.254596 0.024500
0.738976 0.254596 0.024500
0.770512 0.254596 0.024500
0.801855 0.254596 0.024500
0.832967 0.254596 0.024500
0.863802 0.254596 0.024500
0.894305 0.254596 0.024500
0.924396 0.254596 0.024500
0.953952 0.254596 0.024500
0.982741 0.254596 0.024500
1.000000 0.254596 0.024500
0.020400 0.285514 0.024500
0.047459 0.285514 0.024500
0.076248 0.285514 0.024500
0.105804 0.285514 0.024500
0.135895 0.285514 0.024500
0.166397 0.285514 0.024500
0.197233 0.285514 0.024500
0.228345 0.285514 0.024500
0.259688 0.285514 0.024500
0.291224 0.285514 0.024500
0.322923 0.285514 0.024500
0.354757 0.285514 0.024500
0.386699 0.285514 0.024500
0.418726 0.285514 0.024500
0.450816 0.285514 0.024500
0.482948 0.285514 0.024500
0.515100 0.285514 0.024500
0.547252 0.285514 0.024500
0.579384 0.285514 0.024500
0.611474 0.285514 0.024500
0.643501 0.285514 0.024500
0.675443 0.285514 0.024500
0.707276 0.285514 0.024500
0.738976 0.285514 0.024500
0.770512 0.285514 0.024500
0.801855 0.285514 0.024500
0.832967 0.285514 0.024500
0.863802 0.285514 0.024500
0.894305 0.285514 0.024500
0.924396 0.285514 0.024500
0.953952 0.285514 0.024500
0.982741 0.285514 0.024500
1.000000 0.285514 0.024500
0.020400 0.316592 0.024500
0.047459 0.316592 0.024500
0.076248 0.316592 0.024500
0.105804 0.316592 0.024500
0.135895 0.316592 0.024500
0.166397 0.316592 0.024500
0.197233 0.316592 0.024500
0.228345 0.316592 0.024500
0.259688 0.316592 0.024500
0.291224 0.316592 0.024500
0.322923 0.316592 0.024500
0.354757 0.316592 0.024500
0.386699 0.316592 0.024500
0.418726 0.316592 0.024500
0.450816 0.316592 0.024500
0.482948 0.316592 0.024500
0.515100 0.316592 0.024500
0.547252 0.316592 0.024500
0.579384 0.316592 0.024500
0.611474 0.316592 0.024500
0.643501 0.316592 0.024500
0.675443 0.316592 0.024500
0.707276 0.316592 0.024500
0.738976 0.316592 0.024500
0.770512 0.316592 0.024500
0.801855 0.316592 0.024500
0.832967 0.316592 0.024500
0.863802 0.316592 0.024500
0.894305 0.316592 0.024500
0.924396 0.316592 0.024500
0.953952 0.316592 0.024500
0.982741 0.316592 0.024500
1.000000 0.316592 0.024500
0.020400 0.347801 0.024500
0.047459 0.347801 0.024500
0.076248 0.347801 0.024500
0.105804 0.347801 0.024500
0.135895 0.347801 0.024500
0.166397 0.347801 0.024500
0.197233 0.347801 0.024500
0.228345 0.347801 0.024500
0.259688 0.347801 0.024500
0.291224 0.347801 0.024500
0.322923 0.347801 0.024500
0.354757 0.347801 0.024500
0.386699 0.347801 0.024500
0.418726 0.347801 0.024500
0.450816 0.347801 0.024500
0.482948 0.347801 0.024500
0.515100 0.347801 0.024500
0.547252 0.347801 0.024500
0.579384 0.347801 0.024500
0.611474 0.347801 0.024500
0.643501 0.347801 0.024500
0.675443 0.347801 0.024500
0.707276 0.347801 0.024500
0.738976 0.347801 0.024500
0.770512 0.347801 0.024500
0.801855 0.347801 0.024500
0.832967 0.347801 0.024500
0.863802 0.347801 0.024500
0.894305 0.347801 0.024500
0.924396 0.347801 0.024500
0.953952 0.347801 0.024500
0.982741 0.347801 0.024500
1.000000 0.347801 0.024500
0.020400 0.379117 0.024500
0.047459 0.379117 0.024500
0.076248 0.379117 0.024500
0.105804 0.379117 0.024500
0.135895 0.379117 0.024500
0.166397 0.379117 0.024500
0.197233 0.379117 0.024500
0.228345 0.379117 0.024500
0.259688 0.379117 0.024500
0.291224 0.379117 0.024500
0.322923 0.379117 0.024500
0.354757 0.379117 0.024500
0.386699 0.379117 0.024500
0.418726 0.379117 0.024500
0.450816 0.379117 0.024500
0.482948 0.379117 0.024500
0.515100 0.379117 0.024500
0.547252 0.379117 0.024500
0.579384 0.379117 0.024500
0.611474 0.379117 0.024500
0.643501 0.379117 0.024500
0.675443 0.379117 0.024500
0.707276 0.379117 0.024500
0.738976 0.379117 0.024500
0.770512 0.379117 0.024500
0.801855 0.379117 0.024500
0.832967 0.379117 0.024500
0.863802 0.379117 0.024500
0.894305 0.379117 0.024500
0.924396 0.379117 0.024500
0.953952 0.379117 0.024500
0.982741 0.379117 0.024500
1.000000 0.379117 0.024500
0.020400 0.410516 0.024500
0.047459 0.410516 0.024500
0.076248 0.410516 0.024500
0.105804 0.410516 0.024500
0.135895 0.410516 0.024500
0.166397 0.410516 0.024500
0.197233 0.410516 0.024500
0.228345 0.410516 0.024500
0.259688 0.410516 0.024500
0.291224 0.410516 0.024500
0.322923 0.410516 0.024500
0.354757 0.410516 0.024500
0.386699 0.410516 0.024500
0.418726 0.410516 0.024500
0.450816 0.410516 0.024500
0.482948 0.410516 0.024500
0.515100 0.410516 0.024500
0.547252 0.410516 0.024500
0.579384 0.410516 0.024500
0.611474 0.410516 0.024500
0.643501 0.410516 0.024500
0.675443 0.410516 0.024500
0.707276 0.410516 0.024500
0.738976 0.410516 0.024500
0.770512 0.410516 0.024500
0.801855 0.410516 0.024500
0.832967 0.410516 0.024500
0.863802 0.410516 0.024500
0.894305 0.410516 0.024500
0.924396 0.410516 0.024500
0.953952 0.410516 0.024500
0.982741 0.410516 0.024500
1.000000 0.410516 0.024500
0.020400 0.441977 0.024500
0.047459 0.441977 0.024500
0.076248 0.441977 0.024500
0.105804 0.441977 0.024500
0.135895 0.441977 0.024500
0.166397 0.441977 0.024500
0.197233 0.441977 0.024500
0.228345 0.441977 0.024500
0.259688 0.441977 0.024500
0.291224 0.441977 0.024500
0.322923 0.441977 0.024500
0.354757 0.441977 0.024500
0.386699 0.441977 0.024500
0.418726 0.441977 0.024500
0.450816 0.441977 0.024500
0.482948 0.441977 0.024500
0.515100 0.441977 0.024500
0.547252 0.441977 0.024500
0.579384 0.441977 0.024500
0.611474 0.441977 0.024500
0.643501 0.441977 0.024500
0.675443 0.441977 0.024500
0.707276 0.441977 0.024500
0.738976 0.441977 0.024500
0.770512 0.441977 0.024500
0.801855 0.441977 0.024500
0.832967 0.441977 0.024500
0.863802 0.441977 0.024500
0.894305 0.441977 0.024500
0.924396 0.441977 0.024500
0.953952 0.441977 0.024500
0.982741 0.441977 0.024500
1.000000 0.441977 0.024500
0.020400 0.473478 0.024500
0.047459 0.473478 0.024500
0.076248 0.473478 0.024500
0.105804 0.473478 0.024500
0.135895 0.473478 0.024500
0.166397 0.473478 0.024500
0.197233 0.473478 0.024500
0.228345 0.473478 0.024500
0.259688 0.473478 0.024500
0.291224 0.473478 0.024500
0.322923 0.473478 0.024500
0.354757 0.473478 0.024500
0.386699 0.473478 0.024500
0.418726 0.473478 0.024500
0.450816 0.473478 0.024500
0.482948 0.473478 0.024500
0.515100 0.473478 0.024500
0.547252 0.473478 0.024500
0.579384 0.473478 0.024500
0.611474 0.473478 0.024500
0.643501 0.473478 0.024500
0.675443 0.473478 0.024500
0.707276 0.473478 0.024500
0.738976 0.473478 0.024500
0.770512 0.473478 0.024500
0.801855 0.473478 0.024500
0.832967 0.473478 0.024500
0.863802 0.473478 0.024500
0.894305 0.473478 0.024500
0.924396 0.473478 0.024500
0.953952 0.473478 0.024500
0.982741 0.473478 0.024500
1.000000 0.473478 0.024500
0.020400 0.505000 0.024500
0.047459 0.505000 0.024500
0.076248 0.505000 0.024500
0.105804 0.505000 0.024500
0.135895 0.505000 0.024500
0.166397 0.505000 0.024500
0.197233 0.505000 0.024500
0.228345 0.505000 0.024500
0.259688 0.505000 0.024500
0.291224 0.505000 0.024500
0.322923 0.505000 0.024500
0.354757 0.505000 0.024500
0.386699 0.505000 0.024500
0.418726 0.505000 0.024500
0.450816 0.505000 0.024500
0.482948 0.505000 0.024500
0.515100 0.505000 0.024500
0.547252 0.505000 0.024500
0.579384 0.505000 0.024500
0.611474 0.505000 0.024500
0.643501 0.505000 0.024500
0.675443 0.505000 0.024500
0.707276 0.505000 0.024500
0.738976 0.505000 0.024500
0.770512 0.505000 0.024500
0.801855 0.505000 0.024500
0.832967 0.505000 0.024500
0.863802 0.505000 0.024500
0.894305 0.505000 0.024500
0.924396 0.505000 0.024500
0.953952 0.505000 0.024500
0.982741 0.505000 0.024500
1.000000 0.505000 0.024500
0.020400 0.536522 0.024500
0.047459 0.536522 0.024500
0.076248 0.536522 0.024500
0.105804 0.536522 0.024500
0.135895 0.536522 0.024500
0.166397 0.536522 0.024500
0.197233 0.536522 0.024500
0.228345 0.536522 0.024500
0.259688 0.536522 0.024500
0.291224 0.536522 0.024500
0.322923 0.536522 0.024500
0.354757 0.536522 0.024500
0.386699 0.536522 0.024500
0.418726 0.536522 0.024500
0.450816 0.536522 0.024500
0.482948 0.536522 0.024500
0.515100 0.536522 0.024500
0.547252 0.536522 0.024500
0.579384 0.536522 0.024500
0.611474 0.536522 0.024500
0.643501 0.536522 0.024500
0.675443 0.536522 0.024500
0.707276 0.536522 0.024500
0.738976 0.536522 0.024500
0.770512 0.536522 0.024500
0.801855 0.536522 0.024500
0.832967 0.536522 0.024500
0.863802 0.536522 0.024500
0.894305 0.536522 0.024500
0.924396 0.536522 0.024500
0.953952 0.536522 0.024500
0.982741 0.536522 0.024500
1.000000 0.536522 0.024500
0.020400 0.568023 0.024500
0.047459 0.568023 0.024500
0.076248 0.568023 0.024500
0.105804 0.568023 0.024500
0.135895 0.568023 0.024500
0.166397 0.568023 0.024500
0.197233 0.568023 0.024500
0.228345 0.568023 0.024500
0.259688 0.568023 0.024500
0.291224 0.568023 0.024500
0.322923 0.568023 0.024500
0.354757 0.568023 0.024500
0.386699 0.568023 0.024500
0.418726 0.568023 0.024500
0.450816 0.568023 0.024500
0.482948 0.568023 0.024500
0.515100 0.568023 0.024500
0.547252 0.568023 0.024500
0.579384 0.568023 0.024500
0.611474 0.568023 0.024500
0.643501 0.568023 0.024500
0.675443 0.568023 0.024500
0.707276 0.568023 0.024500
0.738976 0.568023 0.024500
0.770512 0.568023 0.024500
0.801855 0.568023 0.024500
0.832967 0.568023 0.024500
0.863802 0.568023 0.024500
0.894305 0.568023 0.024500
0.924396 0.568023 0.024500
0.953952 0.568023 0.024500
0.982741 0.568023 0.024500
1.000000 0.568023 0.024500
0.020400 0.599484 0.024500
0.047459 0.599484 0.024500
0.076248 0.599484 0.024500
0.105804 0.599484 0.024500
0.135895 0.599484 0.024500
0.166397 0.599484 0.024500
0.197233 0.599484 0.024500
0.228345 0.599484 0.024500
0.259688 0.599484 0.024500
0.291224 0.599484 0.024500
0.322923 0.599484 0.024500
0.354757 0.599484 0.024500
0.386699 0.599484 0.024500
0.418726 0.599484 0.024500
0.450816 0.599484 0.024500
0.482948 0.599484 0.024500
0.515100 0.599484 0.024500
0.547252 0.599484 0.024500
0.579384 0.599484 0.024500
0.611474 0.599484 0.024500
0.643501 0.599484 0.024500
0.675443 0.599484 0.024500
0.707276 0.599484 0.024500
0.738976 0.599484 0.024500
0.770512 0.599484 0.024500
0.801855 0.599484 0.024500
0.832967 0.599484 0.024500
0.863802 0.599484 0.024500
0.894305 0.599484 0.024500
0.924396 0.599484 0.024500
0.953952 0.599484 0.024500
0.982741 0.599484 0.024500
1.000000 0.599484 0.024500
0.020400 0.630883 0.024500
0.047459 0.630883 0.024500
0.076248 0.630883 0.024500
0.105804 0.630883 0.024500
0.135895 0.630883 0.024500
0.166397 0.630883 0.024500
0.197233 0.630883 0.024500
0.228345 0.630883 0.024500
0.259688 0.630883 0.024500
0.291224 0.630883 0.024500
0.322923 0.630883 0.024500
0.354757 0.630883 0.024500
0.386699 0.630883 0.024500
0.418726 0.630883 0.024500
0.450816 0.630883 0.024500
0.482948 0.630883 0.024500
0.515100 0.630883 0.024500
0.547252 0.630883 0.024500
0.579384 0.630883 0.024500
0.611474 0.630883 0.024500
0.643501 0.630883 0.024500
0.675443 0.630883 0.024500
0.707276 0.630883 0.024500
0.738976 0.630883 0.024500
0.770512 0.630883 0.024500
0.801855 0.630883 0.024500
0.832967 0.630883 0.024500
0.863802 0.630883 0.024500
0.894305 0.630883 0.024500
0.924396 0.630883 0.024500
0.953952 0.630883 0.024500
0.982741 0.630883 0.024500
1.000000 0.630883 0.024500
0.020400 0.662199 0.024500
0.047459 0.662199 0.024500
0.076248 0.662199 0.024500
0.105804 0.662199 0.024500
0.135895 0.662199 0.024500
0.166397 0.662199 0.024500
0.197233 0.662199 0.024500
0.228345 0.662199 0.024500
0.259688 0.662199 0.024500
0.291224 0.662199 0.024500
0.322923 0.662199 0.024500
0.354757 0.662199 0.024500
0.386699 0.662199 0.024500
0.418726 0.662199 0.024500
0.450816 0.662199 0.024500
0.482948 0.662199 0.024500
0.515100 0.662199 0.024500
0.547252 0.662199 0.024500
0.579384 0.662199 0.024500
0.611474 0.662199 0.024500
0.643501 0.662199 0.024500
0.675443 0.662199 0.024500
0.707276 0.662199 0.024500
0.738976 0.662199 0.024500
0.770512 0.662199 0.024500
0.801855 0.662199 0.024500
0.832967 0.662199 0.024500
0.863802 0.662199 0.024500
0.894305 0.662199 0.024500
0.924396 0.662199 0.024500
0.953952 0.662199 0.024500
0.982741 0.662199 0.024500
1.000000 0.662199 0.024500
0.020400 0.693408 0.024500
0.047459 0.693408 0.024500
0.076248 0.693408 0.024500
0.105804 0.693408 0.024500
0.135895 0.693408 0.024500
0.166397 0.693408 0.024500
0.197233 0.693408 0.024500
0.228345 0.693408 0.024500
0.259688 0.693408 0.024500
0.291224 0.693408 0.024500
0.322923 0.693408 0.024500
0.354757 0.693408 0.024500
0.386699 0.693408 0.024500
0.418726 0.693408 0.024500
0.450816 0.693408 0.024500
0.482948 0.693408 0.024500
0.515100 0.693408 0.024500
0.547252 0.693408 0.024500
0.579384 0.693408 0.024500
0.611474 0.693408 0.024500
0.643501 0.693408 0.024500
0.675443 0.693408 0.024500
0.707276 0.693408 0.024500
0.738976 0.693408 0.024500
0.770512 0.693408 0.024500
0.801855 0.693408 0.024500
0.832967 0.693408 0.024500
0.863802 0.693408 0.024500
0.894305 0.693408 0.024500
0.924396 0.693408 0.024500
0.953952 0.693408 0.024500
0.982741 0.693408 0.024500
1.000000 0.693408 0.024500
0.020400 0.724486 0.024500
0.047459 0.724486 0.024500
0.076248 0.724486 0.024500
0.105804 0.724486 0.024500
0.135895 0.724486 0.024500
0.166397 0.724486 0.024500
0.197233 0.724486 0.024500
0.228345 0.724486 0.024500
0.259688 0.724486 0.024500
0.291224 0.724486 0.024500
0.322923 0.724486 0.024500
0.354757 0.724486 0.024500
0.386699 0.724486 0.024500
0.418726 0.724486 0.024500
0.450816 0.724486 0.024500
0.482948 0.724486 0.024500
0.515100 0.724486 0.024500
0.547252 0.724486 0.024500
0.579384 0.724486 0.024500
0.611474 0.724486 0.024500
0.643501 0.724486 0.024500
0.675443 0.724486 0.024500
0.707276 0.724486 0.024500
0.738976 0.724486 0.024500
0.770512 0.724486 0.024500
0.801855 0.724486 0.024500
0.832967 0.724486 0.024500
0.863802 0.724486 0.024500
0.894305 0.724486 0.024500
0.924396 0.724486 0.024500
0.953952 0.724486 0.024500
0.982741 0.724486 0.024500
1.000000 0.724486 0.024500
0.020400 0.755404 0.024500
0.047459 0.755404 0.024500
0.076248 0.755404 0.024500
0.105804 0.755404 0.024500
0.135895 0.755404 0.024500
0.166397 0.755404 0.024500
0.197233 0.755404 0.024500
0.228345 0.755404 0.024500
0.259688 0.755404 0.024500
0.291224 0.755404 0.024500
0.322923 0.755404 0.024500
0.354757 0.755404 0.024500
0.386699 0.755404 0.024500
0.418726 0.755404 0.024500
0.450816 0.755404 0.024500
0.482948 0.755404 0.024500
0.515100 0.755404 0.024500
0.547252 0.755404 0.024500
0.579384 0.755404 0.024500
0.611474 0.755404 0.024500
0.643501 0.755404 0.024500
0.675443 0.755404 0.024500
0.707276 0.755404 0.024500
0.738976 0.755404 0.024500
0.770512 0.755404 0.024500
0.801855 0.755404 0.024500
0.832967 0.755404 0.024500
0.863802 0.755404 0.024500
0.894305 0.755404 0.024500
0.924396 0.755404 0.024500
0.953952 0.755404 0.024500
0.982741 0.755404 0.024500
1.000000 0.755404 0.024500
0.020400 0.786132 0.024500
0.047459 0.786132 0.024500
0.076248 0.786132 0.024500
0.105804 0.786132 0.024500
0.135895 0.786132 0.024500
0.166397 0.786132 0.024500
0.197233 0.786132 0.024500
0.228345 0.786132 0.024500
0.259688 0.786132 0.024500
0.291224 0.786132 0.024500
0.322923 0.786132 0.024500
0.354757 0.786132 0.024500
0.386699 0.786132 0.024500
0.418726 0.786132 0.024500
0.450816 0.786132 0.024500
0.482948 0.786132 0.024500
0.515100 0.786132 0.024500
0.547252 0.786132 0.024500
0.579384 0.786132 0.024500
0.611474 0.786132 0.024500
0.643501 0.786132 0.024500
0.675443 0.786132 0.024500
0.707276 0.786132 0.024500
0.738976 0.786132 0.024500
0.770512 0.786132 0.024500
0.801855 0.786132 0.024500
0.832967 0.786132 0.024500
0.863802 0.786132 0.024500
0.894305 0.786132 0.024500
0.924396 0.786132 0.024500
0.953952 0.786132 0.024500
0.982741 0.786132 0.024500
1.000000 0.786132 0.024500
0.020400 0.816634 0.024500
0.047459 0.816634 0.024500
0.076248 0.816634 0.024500
0.105804 0.816634 0.024500
0.135895 0.816634 0.024500
0.166397 0.816634 0.024500
0.197233 0.816634 0.024500
0.228345 0.816634 0.024500
0.259688 0.816634 0.024500
0.291224 0.816634 0.024500
0.322923 0.816634 0.024500
0.354757 0.816634 0.024500
0.386699 0.816634 0.024500
0.418726 0.816634 0.024500
0.450816 0.816634 0.024500
0.482948 0.816634 0.024500
0.515100 0.816634 0.024500
0.547252 0.816634 0.024500
0.579384 0.816634 0.024500
0.611474 0.816634 0.024500
0.643501 0.816634 0.024500
0.675443 0.816634 0.024500
0.707276 0.816634 0.024500
0.738976 0.816634 0.024500
0.770512 0.816634 0.024500
0.801855 0.816634 0.024500
0.832967 0.816634 0.024500
