campaign/color/luts/locos_materos_warm_cinematic.cube
TITLE "Locos Materos Warm Cinematic"
LUT_3D_SIZE 9
DOMAIN_MIN 0.0 0.0 0.0
DOMAIN_MAX 1.0 1.0 1.0
0.000000 0.000000 0.000000
0.113419 0.000000 0.000000
0.243788 0.000000 0.000000
0.381427 0.000000 0.000000
0.522500 0.000000 0.000000
0.663935 0.000000 0.000000
0.802629 0.000000 0.000000
0.934639 0.000000 0.000000
1.000000 0.000000 0.000000
0.000000 0.118590 0.000000
0.113419 0.115136 0.000000
0.243788 0.115136 0.000000
0.381427 0.115136 0.000000
0.522500 0.115136 0.000000
0.663935 0.115136 0.000000
0.802629 0.115136 0.000000
0.934639 0.115136 0.000000
1.000000 0.115136 0.000000
0.000000 0.250346 0.000000
0.111151 0.250346 0.000000
0.243788 0.243055 0.000000
0.381427 0.243055 0.000000
0.522500 0.243055 0.000000
0.663935 0.243055 0.000000
0.802629 0.243055 0.000000
0.934639 0.243055 0.000000
1.000000 0.243055 0.000000
0.000000 0.387572 0.000000
0.111151 0.387572 0.000000
0.238912 0.387572 0.000000
0.381427 0.376284 0.000000
0.522500 0.376284 0.000000
0.663935 0.376284 0.000000
0.802629 0.376284 0.000000
0.934639 0.376284 0.000000
1.000000 0.376284 0.000000
0.000000 0.527360 0.000000
0.111151 0.527360 0.000000
0.238912 0.527360 0.000000
0.373798 0.527360 0.000000
0.522500 0.512000 0.000000
0.663935 0.512000 0.000000
0.802629 0.512000 0.000000
0.934639 0.512000 0.000000
1.000000 0.512000 0.000000
0.000000 0.667435 0.000000
0.111151 0.667435 0.000000
0.238912 0.667435 0.000000
0.373798 0.667435 0.000000
0.512050 0.667435 0.000000
0.663935 0.647996 0.000000
0.802629 0.647996 0.000000
0.934639 0.647996 0.000000
1.000000 0.647996 0.000000
0.000000 0.805506 0.000000
0.111151 0.805506 0.000000
0.238912 0.805506 0.000000
0.373798 0.805506 0.000000
0.512050 0.805506 0.000000
0.650657 0.805506 0.000000
0.802629 0.782045 0.000000
0.934639 0.782045 0.000000
1.000000 0.782045 0.000000
0.000000 0.938601 0.000000
0.111151 0.938601 0.000000
0.238912 0.938601 0.000000
0.373798 0.938601 0.000000
0.512050 0.938601 0.000000
0.650657 0.938601 0.000000
0.786576 0.938601 0.000000
0.934639 0.911263 0.000000
1.000000 0.911263 0.000000
0.000000 1.000000 0.000000
0.111151 1.000000 0.000000
0.238912 1.000000 0.000000
0.373798 1.000000 0.000000
0.512050 1.000000 0.000000
0.650657 1.000000 0.000000
0.786576 1.000000 0.000000
0.915946 1.000000 0.000000
1.000000 1.000000 0.000000
0.000000 0.000000 0.110827
0.113419 0.000000 0.110827
0.243788 0.000000 0.110827
0.381427 0.000000 0.110827
0.522500 0.000000 0.110827
0.663935 0.000000 0.110827
0.802629 0.000000 0.110827
0.934639 0.000000 0.110827
1.000000 0.000000 0.110827
0.000000 0.115136 0.110827
0.113419 0.115136 0.110827
0.243788 0.115136 0.110827
0.381427 0.115136 0.110827
0.522500 0.115136 0.110827
0.663935 0.115136 0.110827
0.802629 0.115136 0.110827
0.934639 0.115136 0.110827
1.000000 0.115136 0.110827
0.000000 0.250346 0.110827
0.111151 0.250346 0.110827
0.243788 0.243055 0.110827
0.381427 0.243055 0.110827
0.522500 0.243055 0.110827
0.663935 0.243055 0.110827
0.802629 0.243055 0.110827
0.934639 0.243055 0.110827
1.000000 0.243055 0.110827
0.000000 0.387572 0.110827
0.111151 0.387572 0.110827
0.238912 0.387572 0.110827
0.381427 0.376284 0.110827
0.522500 0.376284 0.110827
0.663935 0.376284 0.110827
0.802629 0.376284 0.110827
0.934639 0.376284 0.110827
1.000000 0.376284 0.110827
0.000000 0.527360 0.110827
0.111151 0.527360 0.110827
0.238912 0.527360 0.110827
0.373798 0.527360 0.110827
0.522500 0.512000 0.110827
0.663935 0.512000 0.110827
0.802629 0.512000 0.110827
0.934639 0.512000 0.110827
1.000000 0.512000 0.110827
0.000000 0.667435 0.110827
0.111151 0.667435 0.110827
0.238912 0.667435 0.110827
0.373798 0.667435 0.110827
0.512050 0.667435 0.110827
0.663935 0.647996 0.110827
0.802629 0.647996 0.110827
0.934639 0.647996 0.110827
1.000000 0.647996 0.110827
0.000000 0.805506 0.110827
0.111151 0.805506 0.110827
0.238912 0.805506 0.110827
0.373798 0.805506 0.110827
0.512050 0.805506 0.110827
0.650657 0.805506 0.110827
0.802629 0.782045 0.110827
0.934639 0.782045 0.110827
1.000000 0.782045 0.110827
0.000000 0.938601 0.110827
0.111151 0.938601 0.110827
0.238912 0.938601 0.110827
0.373798 0.938601 0.110827
0.512050 0.938601 0.110827
0.650657 0.938601 0.110827
0.786576 0.938601 0.110827
0.934639 0.911263 0.110827
1.000000 0.911263 0.110827
0.000000 1.000000 0.110827
0.111151 1.000000 0.110827
0.238912 1.000000 0.110827
0.373798 1.000000 0.110827
0.512050 1.000000 0.110827
0.650657 1.000000 0.110827
0.786576 1.000000 0.110827
0.915946 1.000000 0.110827
1.000000 1.000000 0.110827
0.000000 0.000000 0.229466
0.113419 0.000000 0.229466
0.243788 0.000000 0.229466
0.381427 0.000000 0.229466
0.522500 0.000000 0.229466
0.663935 0.000000 0.229466
0.802629 0.000000 0.229466
0.934639 0.000000 0.229466
1.000000 0.000000 0.229466
0.000000 0.115136 0.229466
0.113419 0.115136 0.229466
0.243788 0.115136 0.229466
0.381427 0.115136 0.229466
0.522500 0.115136 0.229466
0.663935 0.115136 0.229466
0.802629 0.115136 0.229466
0.934639 0.115136 0.229466
1.000000 0.115136 0.229466
0.000000 0.243055 0.229466
0.113419 0.243055 0.229466
0.243788 0.243055 0.229466
0.381427 0.243055 0.229466
0.522500 0.243055 0.229466
0.663935 0.243055 0.229466
0.802629 0.243055 0.229466
0.934639 0.243055 0.229466
1.000000 0.243055 0.229466
0.000000 0.387572 0.229466
0.111151 0.387572 0.229466
0.238912 0.387572 0.229466
0.381427 0.376284 0.229466
0.522500 0.376284 0.229466
0.663935 0.376284 0.229466
0.802629 0.376284 0.229466
0.934639 0.376284 0.229466
1.000000 0.376284 0.229466
0.000000 0.527360 0.229466
0.111151 0.527360 0.229466
0.238912 0.527360 0.229466
0.373798 0.527360 0.229466
0.522500 0.512000 0.229466
0.663935 0.512000 0.229466
0.802629 0.512000 0.229466
0.934639 0.512000 0.229466
1.000000 0.512000 0.229466
0.000000 0.667435 0.229466
0.111151 0.667435 0.229466
0.238912 0.667435 0.229466
0.373798 0.667435 0.229466
0.512050 0.667435 0.229466
0.663935 0.647996 0.229466
0.802629 0.647996 0.229466
0.934639 0.647996 0.229466
1.000000 0.647996 0.229466
0.000000 0.805506 0.229466
0.111151 0.805506 0.229466
0.238912 0.805506 0.229466
0.373798 0.805506 0.229466
0.512050 0.805506 0.229466
0.650657 0.805506 0.229466
0.802629 0.782045 0.229466
0.934639 0.782045 0.229466
1.000000 0.782045 0.229466
0.000000 0.938601 0.229466
0.111151 0.938601 0.229466
0.238912 0.938601 0.229466
0.373798 0.938601 0.229466
0.512050 0.938601 0.229466
0.650657 0.938601 0.229466
0.786576 0.938601 0.229466
0.934639 0.911263 0.229466
1.000000 0.911263 0.229466
0.000000 1.000000 0.229466
0.111151 1.000000 0.229466
0.238912 1.000000 0.229466
0.373798 1.000000 0.229466
0.512050 1.000000 0.229466
0.650657 1.000000 0.229466
0.786576 1.000000 0.229466
0.915946 1.000000 0.229466
1.000000 1.000000 0.229466
0.000000 0.000000 0.351027
0.113419 0.000000 0.351027
0.243788 0.000000 0.351027
0.381427 0.000000 0.351027
0.522500 0.000000 0.351027
0.663935 0.000000 0.351027
0.802629 0.000000 0.351027
0.934639 0.000000 0.351027
1.000000 0.000000 0.351027
0.000000 0.115136 0.351027
0.113419 0.115136 0.351027
0.243788 0.115136 0.351027
0.381427 0.115136 0.351027
0.522500 0.115136 0.351027
0.663935 0.115136 0.351027
0.802629 0.115136 0.351027
0.934639 0.115136 0.351027
1.000000 0.115136 0.351027
0.000000 0.243055 0.351027
0.113419 0.243055 0.351027
0.243788 0.243055 0.351027
0.381427 0.243055 0.351027
0.522500 0.243055 0.351027
0.663935 0.243055 0.351027
0.802629 0.243055 0.351027
0.934639 0.243055 0.351027
1.000000 0.243055 0.351027
0.000000 0.376284 0.351027
0.113419 0.376284 0.351027
0.243788 0.376284 0.351027
0.381427 0.376284 0.351027
0.522500 0.376284 0.351027
0.663935 0.376284 0.351027
0.802629 0.376284 0.351027
0.934639 0.376284 0.351027
1.000000 0.376284 0.351027
0.000000 0.527360 0.351027
0.111151 0.527360 0.351027
0.238912 0.527360 0.351027
0.373798 0.527360 0.351027
0.522500 0.512000 0.351027
0.663935 0.512000 0.351027
0.802629 0.512000 0.351027
0.934639 0.512000 0.351027
1.000000 0.512000 0.351027
0.000000 0.667435 0.351027
0.111151 0.667435 0.351027
0.238912 0.667435 0.351027
0.373798 0.667435 0.351027
0.512050 0.667435 0.351027
0.663935 0.647996 0.351027
0.802629 0.647996 0.351027
0.934639 0.647996 0.351027
1.000000 0.647996 0.351027
0.000000 0.805506 0.351027
0.111151 0.805506 0.351027
0.238912 0.805506 0.351027
0.373798 0.805506 0.351027
0.512050 0.805506 0.351027
0.650657 0.805506 0.351027
0.802629 0.782045 0.351027
0.934639 0.782045 0.351027
1.000000 0.782045 0.351027
0.000000 0.938601 0.351027
0.111151 0.938601 0.351027
0.238912 0.938601 0.351027
0.373798 0.938601 0.351027
0.512050 0.938601 0.351027
0.650657 0.938601 0.351027
0.786576 0.938601 0.351027
0.934639 0.911263 0.351027
1.000000 0.911263 0.351027
0.000000 1.000000 0.351027
0.111151 1.000000 0.351027
0.238912 1.000000 0.351027
0.373798 1.000000 0.351027
0.512050 1.000000 0.351027
0.650657 1.000000 0.351027
0.786576 1.000000 0.351027
0.915946 1.000000 0.351027
1.000000 1.000000 0.351027
0.000000 0.000000 0.473750
0.113419 0.000000 0.473750
0.243788 0.000000 0.473750
0.381427 0.000000 0.473750
0.522500 0.000000 0.473750
0.663935 0.000000 0.473750
0.802629 0.000000 0.473750
0.934639 0.000000 0.473750
1.000000 0.000000 0.473750
0.000000 0.115136 0.473750
0.113419 0.115136 0.473750
0.243788 0.115136 0.473750
0.381427 0.115136 0.473750
0.522500 0.115136 0.473750
0.663935 0.115136 0.473750
0.802629 0.115136 0.473750
0.934639 0.115136 0.473750
1.000000 0.115136 0.473750
0.000000 0.243055 0.473750
0.113419 0.243055 0.473750
0.243788 0.243055 0.473750
0.381427 0.243055 0.473750
0.522500 0.243055 0.473750
0.663935 0.243055 0.473750
0.802629 0.243055 0.473750
0.934639 0.243055 0.473750
1.000000 0.243055 0.473750
0.000000 0.376284 0.473750
0.113419 0.376284 0.473750
0.243788 0.376284 0.473750
0.381427 0.376284 0.473750
0.522500 0.376284 0.473750
0.663935 0.376284 0.473750
0.802629 0.376284 0.473750
0.934639 0.376284 0.473750
1.000000 0.376284 0.473750
0.000000 0.512000 0.473750
0.113419 0.512000 0.473750
0.243788 0.512000 0.473750
0.381427 0.512000 0.473750
0.522500 0.512000 0.473750
0.663935 0.512000 0.473750
0.802629 0.512000 0.473750
0.934639 0.512000 0.473750
1.000000 0.512000 0.473750
0.000000 0.667435 0.473750
0.111151 0.667435 0.473750
0.238912 0.667435 0.473750
0.373798 0.667435 0.473750
0.512050 0.667435 0.473750
0.663935 0.647996 0.473750
0.802629 0.647996 0.473750
0.934639 0.647996 0.473750
1.000000 0.647996 0.473750
0.000000 0.805506 0.473750
0.111151 0.805506 0.473750
0.238912 0.805506 0.473750
0.373798 0.805506 0.473750
0.512050 0.805506 0.473750
0.650657 0.805506 0.473750
0.802629 0.782045 0.473750
0.934639 0.782045 0.473750
1.000000 0.782045 0.473750
0.000000 0.938601 0.473750
0.111151 0.938601 0.473750
0.238912 0.938601 0.473750
0.373798 0.938601 0.473750
0.512050 0.938601 0.473750
0.650657 0.938601 0.473750
0.786576 0.938601 0.473750
0.934639 0.911263 0.473750
1.000000 0.911263 0.473750
0.000000 1.000000 0.473750
0.111151 1.000000 0.473750
0.238912 1.000000 0.473750
0.373798 1.000000 0.473750
0.512050 1.000000 0.473750
0.650657 1.000000 0.473750
0.786576 1.000000 0.473750
0.915946 1.000000 0.473750
1.000000 1.000000 0.473750
0.000000 0.000000 0.596305
0.113419 0.000000 0.596305
0.243788 0.000000 0.596305
0.381427 0.000000 0.596305
0.522500 0.000000 0.596305
0.663935 0.000000 0.596305
0.802629 0.000000 0.596305
0.934639 0.000000 0.596305
1.000000 0.000000 0.596305
0.000000 0.115136 0.596305
0.113419 0.115136 0.596305
0.243788 0.115136 0.596305
0.381427 0.115136 0.596305
0.522500 0.115136 0.596305
0.663935 0.115136 0.596305
0.802629 0.115136 0.596305
0.934639 0.115136 0.596305
1.000000 0.115136 0.596305
0.000000 0.243055 0.596305
0.113419 0.243055 0.596305
0.243788 0.243055 0.596305
0.381427 0.243055 0.596305
0.522500 0.243055 0.596305
0.663935 0.243055 0.596305
0.802629 0.243055 0.596305
0.934639 0.243055 0.596305
1.000000 0.243055 0.596305
0.000000 0.376284 0.596305
0.113419 0.376284 0.596305
0.243788 0.376284 0.596305
0.381427 0.376284 0.596305
0.522500 0.376284 0.596305
0.663935 0.376284 0.596305
0.802629 0.376284 0.596305
0.934639 0.376284 0.596305
1.000000 0.376284 0.596305
0.000000 0.512000 0.596305
0.113419 0.512000 0.596305
0.243788 0.512000 0.596305
0.381427 0.512000 0.596305
0.522500 0.512000 0.596305
0.663935 0.512000 0.596305
0.802629 0.512000 0.596305
0.934639 0.512000 0.596305
1.000000 0.512000 0.596305
0.000000 0.647996 0.596305
0.113419 0.647996 0.596305
0.243788 0.647996 0.596305
0.381427 0.647996 0.596305
0.522500 0.647996 0.596305
0.663935 0.647996 0.596305
0.802629 0.647996 0.596305
0.934639 0.647996 0.596305
1.000000 0.647996 0.596305
0.000000 0.805506 0.596305
0.111151 0.805506 0.596305
0.238912 0.805506 0.596305
0.373798 0.805506 0.596305
0.512050 0.805506 0.596305
0.650657 0.805506 0.596305
0.802629 0.782045 0.596305
0.934639 0.782045 0.596305
1.000000 0.782045 0.596305
0.000000 0.938601 0.596305
0.111151 0.938601 0.596305
0.238912 0.938601 0.596305
0.373798 0.938601 0.596305
0.512050 0.938601 0.596305
0.650657 0.938601 0.596305
0.786576 0.938601 0.596305
0.934639 0.911263 0.596305
1.000000 0.911263 0.596305
0.000000 1.000000 0.596305
0.111151 1.000000 0.596305
0.238912 1.000000 0.596305
0.373798 1.000000 0.596305
0.512050 1.000000 0.596305
0.650657 1.000000 0.596305
0.786576 1.000000 0.596305
0.915946 1.000000 0.596305
1.000000 1.000000 0.596305
0.000000 0.000000 0.717367
0.113419 0.000000 0.717367
0.243788 0.000000 0.717367
0.381427 0.000000 0.717367
0.522500 0.000000 0.717367
0.663935 0.000000 0.717367
0.802629 0.000000 0.717367
0.934639 0.000000 0.717367
1.000000 0.000000 0.717367
0.000000 0.115136 0.717367
0.113419 0.115136 0.717367
0.243788 0.115136 0.717367
0.381427 0.115136 0.717367
0.522500 0.115136 0.717367
0.663935 0.115136 0.717367
0.802629 0.115136 0.717367
0.934639 0.115136 0.717367
1.000000 0.115136 0.717367
0.000000 0.243055 0.717367
0.113419 0.243055 0.717367
0.243788 0.243055 0.717367
0.381427 0.243055 0.717367
0.522500 0.243055 0.717367
0.663935 0.243055 0.717367
0.802629 0.243055 0.717367
0.934639 0.243055 0.717367
1.000000 0.243055 0.717367
0.000000 0.376284 0.717367
0.113419 0.376284 0.717367
0.243788 0.376284 0.717367
0.381427 0.376284 0.717367
0.522500 0.376284 0.717367
0.663935 0.376284 0.717367
0.802629 0.376284 0.717367
0.934639 0.376284 0.717367
1.000000 0.376284 0.717367
0.000000 0.512000 0.717367
0.113419 0.512000 0.717367
0.243788 0.512000 0.717367
0.381427 0.512000 0.717367
0.522500 0.512000 0.717367
0.663935 0.512000 0.717367
0.802629 0.512000 0.717367
0.934639 0.512000 0.717367
1.000000 0.512000 0.717367
0.000000 0.647996 0.717367
0.113419 0.647996 0.717367
0.243788 0.647996 0.717367
0.381427 0.647996 0.717367
0.522500 0.647996 0.717367
0.663935 0.647996 0.717367
0.802629 0.647996 0.717367
0.934639 0.647996 0.717367
1.000000 0.647996 0.717367
0.000000 0.782045 0.717367
0.113419 0.782045 0.717367
0.243788 0.782045 0.717367
0.381427 0.782045 0.717367
0.522500 0.782045 0.717367
0.663935 0.782045 0.717367
0.802629 0.782045 0.717367
0.934639 0.782045 0.717367
1.000000 0.782045 0.717367
0.000000 0.938601 0.717367
0.111151 0.938601 0.717367
0.238912 0.938601 0.717367
0.373798 0.938601 0.717367
0.512050 0.938601 0.717367
0.650657 0.938601 0.717367
0.786576 0.938601 0.717367
0.934639 0.911263 0.717367
1.000000 0.911263 0.717367
0.000000 1.000000 0.717367
0.111151 1.000000 0.717367
0.238912 1.000000 0.717367
0.373798 1.000000 0.717367
0.512050 1.000000 0.717367
0.650657 1.000000 0.717367
0.786576 1.000000 0.717367
0.915946 1.000000 0.717367
1.000000 1.000000 0.717367
0.000000 0.000000 0.835204
0.113419 0.000000 0.835204
0.243788 0.000000 0.835204
0.381427 0.000000 0.835204
0.522500 0.000000 0.835204
0.663935 0.000000 0.835204
0.802629 0.000000 0.835204
0.934639 0.000000 0.835204
1.000000 0.000000 0.835204
0.000000 0.115136 0.835204
0.113419 0.115136 0.835204
0.243788 0.115136 0.835204
0.381427 0.115136 0.835204
0.522500 0.115136 0.835204
0.663935 0.115136 0.835204
0.802629 0.115136 0.835204
0.934639 0.115136 0.835204
1.000000 0.115136 0.835204
0.000000 0.243055 0.835204
0.113419 0.243055 0.835204
0.243788 0.243055 0.835204
0.381427 0.243055 0.835204
0.522500 0.243055 0.835204
0.663935 0.243055 0.835204
0.802629 0.243055 0.835204
0.934639 0.243055 0.835204
1.000000 0.243055 0.835204
0.000000 0.376284 0.835204
0.113419 0.376284 0.835204
0.243788 0.376284 0.835204
0.381427 0.376284 0.835204
0.522500 0.376284 0.835204
0.663935 0.376284 0.835204
0.802629 0.376284 0.835204
0.934639 0.376284 0.835204
1.000000 0.376284 0.835204
0.000000 0.512000 0.835204
0.113419 0.512000 0.835204
0.243788 0.512000 0.835204
0.381427 0.512000 0.835204
0.522500 0.512000 0.835204
0.663935 0.512000 0.835204
0.802629 0.512000 0.835204
0.934639 0.512000 0.835204
1.000000 0.512000 0.835204
0.000000 0.647996 0.835204
0.113419 0.647996 0.835204
0.243788 0.647996 0.835204
0.381427 0.647996 0.835204
0.522500 0.647996 0.835204
0.663935 0.647996 0.835204
0.802629 0.647996 0.835204
0.934639 0.647996 0.835204
1.000000 0.647996 0.835204
0.000000 0.782045 0.835204
0.113419 0.782045 0.835204
0.243788 0.782045 0.835204
0.381427 0.782045 0.835204
0.522500 0.782045 0.835204
0.663935 0.782045 0.835204
0.802629 0.782045 0.835204
0.934639 0.782045 0.835204
1.000000 0.782045 0.835204
0.000000 0.911263 0.835204
0.113419 0.911263 0.835204
0.243788 0.911263 0.835204
0.381427 0.911263 0.835204
0.522500 0.911263 0.835204
0.663935 0.911263 0.835204
0.802629 0.911263 0.835204
0.934639 0.911263 0.835204
1.000000 0.911263 0.835204
0.000000 1.000000 0.835204
0.111151 1.000000 0.835204
0.238912 1.000000 0.835204
0.373798 1.000000 0.835204
0.512050 1.000000 0.835204
0.650657 1.000000 0.835204
0.786576 1.000000 0.835204
0.915946 1.000000 0.835204
1.000000 1.000000 0.835204
0.000000 0.000000 0.945000
0.113419 0.000000 0.945000
0.243788 0.000000 0.945000
0.381427 0.000000 0.945000
0.522500 0.000000 0.945000
0.663935 0.000000 0.945000
0.802629 0.000000 0.945000
0.934639 0.000000 0.945000
1.000000 0.000000 0.945000
0.000000 0.115136 0.945000
0.113419 0.115136 0.945000
0.243788 0.115136 0.945000
0.381427 0.115136 0.945000
0.522500 0.115136 0.945000
0.663935 0.115136 0.945000
0.802629 0.115136 0.945000
0.934639 0.115136 0.945000
1.000000 0.115136 0.945000
0.000000 0.243055 0.945000
0.113419 0.243055 0.945000
0.243788 0.243055 0.945000
0.381427 0.243055 0.945000
0.522500 0.243055 0.945000
0.663935 0.243055 0.945000
0.802629 0.243055 0.945000
0.934639 0.243055 0.945000
1.000000 0.243055 0.945000
0.000000 0.376284 0.945000
0.113419 0.376284 0.945000
0.243788 0.376284 0.945000
0.381427 0.376284 0.945000
0.522500 0.376284 0.945000
0.663935 0.376284 0.945000
0.802629 0.376284 0.945000
0.934639 0.376284 0.945000
1.000000 0.376284 0.945000
0.000000 0.512000 0.945000
0.113419 0.512000 0.945000
0.243788 0.512000 0.945000
0.381427 0.512000 0.945000
0.522500 0.512000 0.945000
0.663935 0.512000 0.945000
0.802629 0.512000 0.945000
0.934639 0.512000 0.945000
1.000000 0.512000 0.945000
0.000000 0.647996 0.945000
0.113419 0.647996 0.945000
0.243788 0.647996 0.945000
0.381427 0.647996 0.945000
0.522500 0.647996 0.945000
0.663935 0.647996 0.945000
0.802629 0.647996 0.945000
0.934639 0.647996 0.945000
1.000000 0.647996 0.945000
0.000000 0.782045 0.945000
0.113419 0.782045 0.945000
0.243788 0.782045 0.945000
0.381427 0.782045 0.945000
0.522500 0.782045 0.945000
0.663935 0.782045 0.945000
0.802629 0.782045 0.945000
0.934639 0.782045 0.945000
1.000000 0.782045 0.945000
0.000000 0.911263 0.945000
0.113419 0.911263 0.945000
0.243788 0.911263 0.945000
0.381427 0.911263 0.945000
0.522500 0.911263 0.945000
0.663935 0.911263 0.945000
0.802629 0.911263 0.945000
0.934639 0.911263 0.945000
1.000000 0.911263 0.945000
0.000000 1.000000 0.945000
0.113419 1.000000 0.945000
0.243788 1.000000 0.945000
0.381427 1.000000 0.945000
0.522500 1.000000 0.945000
0.663935 1.000000 0.945000
0.802629 1.000000 0.945000
0.934639 1.000000 0.945000
1.000000 1.000000 0.945000
