campaign/color/luts/locos_materos_master_grade.cube
TITLE "Locos Materos Master Grade"
LUT_3D_SIZE 5
DOMAIN_MIN 0.0 0.0 0.0
DOMAIN_MAX 1.0 1.0 1.0
0.000000 0.000000 0.000000
0.236870 0.000000 0.000000
0.515000 0.000000 0.000000
0.793130 0.000000 0.000000
1.000000 0.000000 0.000000
0.000000 0.236224 0.000000
0.236870 0.236224 0.000000
0.515000 0.236224 0.000000
0.793130 0.236224 0.000000
1.000000 0.236224 0.000000
0.000000 0.505000 0.000000
0.236870 0.505000 0.000000
0.515000 0.505000 0.000000
0.793130 0.505000 0.000000
1.000000 0.505000 0.000000
0.000000 0.773776 0.000000
0.236870 0.773776 0.000000
0.515000 0.773776 0.000000
0.793130 0.773776 0.000000
1.000000 0.773776 0.000000
0.000000 1.000000 0.000000
0.236870 1.000000 0.000000
0.515000 1.000000 0.000000
0.793130 1.000000 0.000000
1.000000 1.000000 0.000000
0.000000 0.000000 0.228331
0.236870 0.000000 0.228331
0.515000 0.000000 0.228331
0.793130 0.000000 0.228331
1.000000 0.000000 0.228331
0.000000 0.236224 0.228331
0.236870 0.236224 0.228331
0.515000 0.236224 0.228331
0.793130 0.236224 0.228331
1.000000 0.236224 0.228331
0.000000 0.505000 0.228331
0.236870 0.505000 0.228331
0.515000 0.505000 0.228331
0.793130 0.505000 0.228331
1.000000 0.505000 0.228331
0.000000 0.773776 0.228331
0.236870 0.773776 0.228331
0.515000 0.773776 0.228331
0.793130 0.773776 0.228331
1.000000 0.773776 0.228331
0.000000 1.000000 0.228331
0.236870 1.000000 0.228331
0.515000 1.000000 0.228331
0.793130 1.000000 0.228331
1.000000 1.000000 0.228331
0.000000 0.000000 0.480000
0.236870 0.000000 0.480000
0.515000 0.000000 0.480000
0.793130 0.000000 0.480000
1.000000 0.000000 0.480000
0.000000 0.236224 0.480000
0.236870 0.236224 0.480000
0.515000 0.236224 0.480000
0.793130 0.236224 0.480000
1.000000 0.236224 0.480000
0.000000 0.505000 0.480000
0.236870 0.505000 0.480000
0.515000 0.505000 0.480000
0.793130 0.505000 0.480000
1.000000 0.505000 0.480000
0.000000 0.773776 0.480000
0.236870 0.773776 0.480000
0.515000 0.773776 0.480000
0.793130 0.773776 0.480000
1.000000 0.773776 0.480000
0.000000 1.000000 0.480000
0.236870 1.000000 0.480000
0.515000 1.000000 0.480000
0.793130 1.000000 0.480000
1.000000 1.000000 0.480000
0.000000 0.000000 0.731668
0.236870 0.000000 0.731668
0.515000 0.000000 0.731668
0.793130 0.000000 0.731668
1.000000 0.000000 0.731668
0.000000 0.236224 0.731668
0.236870 0.236224 0.731668
0.515000 0.236224 0.731668
0.793130 0.236224 0.731668
1.000000 0.236224 0.731668
0.000000 0.505000 0.731668
0.236870 0.505000 0.731668
0.515000 0.505000 0.731668
0.793130 0.505000 0.731668
1.000000 0.505000 0.731668
0.000000 0.773776 0.731668
0.236870 0.773776 0.731668
0.515000 0.773776 0.731668
0.793130 0.773776 0.731668
1.000000 0.773776 0.731668
0.000000 1.000000 0.731668
0.236870 1.000000 0.731668
0.515000 1.000000 0.731668
0.793130 1.000000 0.731668
1.000000 1.000000 0.731668
0.000000 0.000000 0.960000
0.236870 0.000000 0.960000
0.515000 0.000000 0.960000
0.793130 0.000000 0.960000
1.000000 0.000000 0.960000
0.000000 0.236224 0.960000
0.236870 0.236224 0.960000
0.515000 0.236224 0.960000
0.793130 0.236224 0.960000
1.000000 0.236224 0.960000
0.000000 0.505000 0.960000
0.236870 0.505000 0.960000
0.515000 0.505000 0.960000
0.793130 0.505000 0.960000
1.000000 0.505000 0.960000
0.000000 0.773776 0.960000
0.236870 0.773776 0.960000
0.515000 0.773776 0.960000
0.793130 0.773776 0.960000
1.000000 0.773776 0.960000
0.000000 1.000000 0.960000
0.236870 1.000000 0.960000
0.515000 1.000000 0.960000
0.793130 1.000000 0.960000
1.000000 1.000000 0.960000
