campaign/color/luts/locos_materos_editorial_film.cube
TITLE "Locos Materos Editorial Film"
LUT_3D_SIZE 5
DOMAIN_MIN 0.0 0.0 0.0
DOMAIN_MAX 1.0 1.0 1.0
0.020400 0.020000 0.024500
0.259688 0.020000 0.024500
0.515100 0.020000 0.024500
0.770512 0.020000 0.024500
1.000000 0.020000 0.024500
0.020400 0.254596 0.024500
0.259688 0.254596 0.024500
0.515100 0.254596 0.024500
0.770512 0.254596 0.024500
1.000000 0.254596 0.024500
0.020400 0.505000 0.024500
0.259688 0.505000 0.024500
0.515100 0.505000 0.024500
0.770512 0.505000 0.024500
1.000000 0.505000 0.024500
0.020400 0.755404 0.024500
0.259688 0.755404 0.024500
0.515100 0.755404 0.024500
0.770512 0.755404 0.024500
1.000000 0.755404 0.024500
0.020400 0.990000 0.024500
0.259688 0.990000 0.024500
0.515100 0.990000 0.024500
0.770512 0.990000 0.024500
1.000000 0.990000 0.024500
0.020400 0.020000 0.255845
0.259688 0.020000 0.255845
0.515100 0.020000 0.255845
0.770512 0.020000 0.255845
1.000000 0.020000 0.255845
0.020400 0.254596 0.255845
0.259688 0.254596 0.255845
0.515100 0.254596 0.255845
0.770512 0.254596 0.255845
1.000000 0.254596 0.255845
0.020400 0.505000 0.255845
0.259688 0.505000 0.255845
0.515100 0.505000 0.255845
0.770512 0.505000 0.255845
1.000000 0.505000 0.255845
0.020400 0.755404 0.255845
0.259688 0.755404 0.255845
0.515100 0.755404 0.255845
0.770512 0.755404 0.255845
1.000000 0.755404 0.255845
0.020400 0.990000 0.255845
0.259688 0.990000 0.255845
0.515100 0.990000 0.255845
0.770512 0.990000 0.255845
1.000000 0.990000 0.255845
0.020400 0.020000 0.494900
0.259688 0.020000 0.494900
0.515100 0.020000 0.494900
0.770512 0.020000 0.494900
1.000000 0.020000 0.494900
0.020400 0.254596 0.494900
0.259688 0.254596 0.494900
0.515100 0.254596 0.494900
0.770512 0.254596 0.494900
1.000000 0.254596 0.494900
0.020400 0.505000 0.494900
0.259688 0.505000 0.494900
0.515100 0.505000 0.494900
0.770512 0.505000 0.494900
1.000000 0.505000 0.494900
0.020400 0.755404 0.494900
0.259688 0.755404 0.494900
0.515100 0.755404 0.494900
0.770512 0.755404 0.494900
1.000000 0.755404 0.494900
0.020400 0.990000 0.494900
0.259688 0.990000 0.494900
0.515100 0.990000 0.494900
0.770512 0.990000 0.494900
1.000000 0.990000 0.494900
0.020400 0.020000 0.733955
0.259688 0.020000 0.733955
0.515100 0.020000 0.733955
0.770512 0.020000 0.733955
1.000000 0.020000 0.733955
0.020400 0.254596 0.733955
0.259688 0.254596 0.733955
0.515100 0.254596 0.733955
0.770512 0.254596 0.733955
1.000000 0.254596 0.733955
0.020400 0.505000 0.733955
0.259688 0.505000 0.733955
0.515100 0.505000 0.733955
0.770512 0.505000 0.733955
1.000000 0.505000 0.733955
0.020400 0.755404 0.733955
0.259688 0.755404 0.733955
0.515100 0.755404 0.733955
0.770512 0.755404 0.733955
1.000000 0.755404 0.733955
0.020400 0.990000 0.733955
0.259688 0.990000 0.733955
0.515100 0.990000 0.733955
0.770512 0.990000 0.733955
1.000000 0.990000 0.733955
0.020400 0.020000 0.965300
0.259688 0.020000 0.965300
0.515100 0.020000 0.965300
0.770512 0.020000 0.965300
1.000000 0.020000 0.965300
0.020400 0.254596 0.965300
0.259688 0.254596 0.965300
0.515100 0.254596 0.965300
0.770512 0.254596 0.965300
1.000000 0.254596 0.965300
0.020400 0.505000 0.965300
0.259688 0.505000 0.965300
0.515100 0.505000 0.965300
0.770512 0.505000 0.965300
1.000000 0.505000 0.965300
0.020400 0.755404 0.965300
0.259688 0.755404 0.965300
0.515100 0.755404 0.965300
0.770512 0.755404 0.965300
1.000000 0.755404 0.965300
0.020400 0.990000 0.965300
0.259688 0.990000 0.965300
0.515100 0.990000 0.965300
0.770512 0.990000 0.965300
1.000000 0.990000 0.965300
