campaign/color/luts/locos_materos_warm_cinematic.cube
TITLE "Locos Materos Warm Cinematic"
LUT_3D_SIZE 5
DOMAIN_MIN 0.0 0.0 0.0
DOMAIN_MAX 1.0 1.0 1.0
0.000000 0.000000 0.000000
0.243788 0.000000 0.000000
0.522500 0.000000 0.000000
0.802629 0.000000 0.000000
1.000000 0.000000 0.000000
0.000000 0.250346 0.000000
0.243788 0.243055 0.000000
0.522500 0.243055 0.000000
0.802629 0.243055 0.000000
1.000000 0.243055 0.000000
0.000000 0.527360 0.000000
0.238912 0.527360 0.000000
0.522500 0.512000 0.000000
0.802629 0.512000 0.000000
1.000000 0.512000 0.000000
0.000000 0.805506 0.000000
0.238912 0.805506 0.000000
0.512050 0.805506 0.000000
0.802629 0.782045 0.000000
1.000000 0.782045 0.000000
0.000000 1.000000 0.000000
0.238912 1.000000 0.000000
0.512050 1.000000 0.000000
0.786576 1.000000 0.000000
1.000000 1.000000 0.000000
0.000000 0.000000 0.229466
0.243788 0.000000 0.229466
0.522500 0.000000 0.229466
0.802629 0.000000 0.229466
1.000000 0.000000 0.229466
0.000000 0.243055 0.229466
0.243788 0.243055 0.229466
0.522500 0.243055 0.229466
0.802629 0.243055 0.229466
1.000000 0.243055 0.229466
0.000000 0.527360 0.229466
0.238912 0.527360 0.229466
0.522500 0.512000 0.229466
0.802629 0.512000 0.229466
1.000000 0.512000 0.229466
0.000000 0.805506 0.229466
0.238912 0.805506 0.229466
0.512050 0.805506 0.229466
0.802629 0.782045 0.229466
1.000000 0.782045 0.229466
0.000000 1.000000 0.229466
0.238912 1.000000 0.229466
0.512050 1.000000 0.229466
0.786576 1.000000 0.229466
1.000000 1.000000 0.229466
0.000000 0.000000 0.473750
0.243788 0.000000 0.473750
0.522500 0.000000 0.473750
0.802629 0.000000 0.473750
1.000000 0.000000 0.473750
0.000000 0.243055 0.473750
0.243788 0.243055 0.473750
0.522500 0.243055 0.473750
0.802629 0.243055 0.473750
1.000000 0.243055 0.473750
0.000000 0.512000 0.473750
0.243788 0.512000 0.473750
0.522500 0.512000 0.473750
0.802629 0.512000 0.473750
1.000000 0.512000 0.473750
0.000000 0.805506 0.473750
0.238912 0.805506 0.473750
0.512050 0.805506 0.473750
0.802629 0.782045 0.473750
1.000000 0.782045 0.473750
0.000000 1.000000 0.473750
0.238912 1.000000 0.473750
0.512050 1.000000 0.473750
0.786576 1.000000 0.473750
1.000000 1.000000 0.473750
0.000000 0.000000 0.717367
0.243788 0.000000 0.717367
0.522500 0.000000 0.717367
0.802629 0.000000 0.717367
1.000000 0.000000 0.717367
0.000000 0.243055 0.717367
0.243788 0.243055 0.717367
0.522500 0.243055 0.717367
0.802629 0.243055 0.717367
1.000000 0.243055 0.717367
0.000000 0.512000 0.717367
0.243788 0.512000 0.717367
0.522500 0.512000 0.717367
0.802629 0.512000 0.717367
1.000000 0.512000 0.717367
0.000000 0.782045 0.717367
0.243788 0.782045 0.717367
0.522500 0.782045 0.717367
0.802629 0.782045 0.717367
1.000000 0.782045 0.717367
0.000000 1.000000 0.717367
0.238912 1.000000 0.717367
0.512050 1.000000 0.717367
0.786576 1.000000 0.717367
1.000000 1.000000 0.717367
0.000000 0.000000 0.945000
0.243788 0.000000 0.945000
0.522500 0.000000 0.945000
0.802629 0.000000 0.945000
1.000000 0.000000 0.945000
0.000000 0.243055 0.945000
0.243788 0.243055 0.945000
0.522500 0.243055 0.945000
0.802629 0.243055 0.945000
1.000000 0.243055 0.945000
0.000000 0.512000 0.945000
0.243788 0.512000 0.945000
0.522500 0.512000 0.945000
0.802629 0.512000 0.945000
1.000000 0.512000 0.945000
0.000000 0.782045 0.945000
0.243788 0.782045 0.945000
0.522500 0.782045 0.945000
0.802629 0.782045 0.945000
1.000000 0.782045 0.945000
0.000000 1.000000 0.945000
0.243788 1.000000 0.945000
0.522500 1.000000 0.945000
0.802629 1.000000 0.945000
1.000000 1.000000 0.945000
