campaign/color/luts/locos_materos_warm_cinematic.cube
TITLE "Locos Materos Warm Cinematic"
LUT_3D_SIZE 33
DOMAIN_MIN 0.0 0.0 0.0
DOMAIN_MAX 1.0 1.0 1.0
0.000000 0.000000 0.000000
0.024886 0.000000 0.000000
0.053010 0.000000 0.000000
0.082666 0.000000 0.000000
0.113419 0.000000 0.000000
0.145042 0.000000 0.000000
0.177381 0.000000 0.000000
0.210326 0.000000 0.000000
0.243788 0.000000 0.000000
0.277691 0.000000 0.000000
0.311970 0.000000 0.000000
0.346567 0.000000 0.000000
0.381427 0.000000 0.000000
0.416498 0.000000 0.000000
0.451732 0.000000 0.000000
0.487082 0.000000 0.000000
0.522500 0.000000 0.000000
0.557941 0.000000 0.000000
0.593359 0.000000 0.000000
0.628706 0.000000 0.000000
0.663935 0.000000 0.000000
0.698996 0.000000 0.000000
0.733837 0.000000 0.000000
0.768401 0.000000 0.000000
0.802629 0.000000 0.000000
0.836452 0.000000 0.000000
0.869793 0.000000 0.000000
0.902561 0.000000 0.000000
0.934639 0.000000 0.000000
0.965872 0.000000 0.000000
0.996023 0.000000 0.000000
1.000000 0.000000 0.000000
1.000000 0.000000 0.000000
0.000000 0.026880 0.000000
0.024886 0.026097 0.000000
0.053010 0.026097 0.000000
0.082666 0.026097 0.000000
0.113419 0.026097 0.000000
0.145042 0.026097 0.000000
0.177381 0.026097 0.000000
0.210326 0.026097 0.000000
0.243788 0.026097 0.000000
0.277691 0.026097 0.000000
0.311970 0.026097 0.000000
0.346567 0.026097 0.000000
0.381427 0.026097 0.000000
0.416498 0.026097 0.000000
0.451732 0.026097 0.000000
0.487082 0.026097 0.000000
0.522500 0.026097 0.000000
0.557941 0.026097 0.000000
0.593359 0.026097 0.000000
0.628706 0.026097 0.000000
0.663935 0.026097 0.000000
0.698996 0.026097 0.000000
0.733837 0.026097 0.000000
0.768401 0.026097 0.000000
0.802629 0.026097 0.000000
0.836452 0.026097 0.000000
0.869793 0.026097 0.000000
0.902561 0.026097 0.000000
0.934639 0.026097 0.000000
0.965872 0.026097 0.000000
0.996023 0.026097 0.000000
1.000000 0.026097 0.000000
1.000000 0.026097 0.000000
0.000000 0.056367 0.000000
0.024388 0.056367 0.000000
0.053010 0.054725 0.000000
0.082666 0.054725 0.000000
0.113419 0.054725 0.000000
0.145042 0.054725 0.000000
0.177381 0.054725 0.000000
0.210326 0.054725 0.000000
0.243788 0.054725 0.000000
0.277691 0.054725 0.000000
0.311970 0.054725 0.000000
0.346567 0.054725 0.000000
0.381427 0.054725 0.000000
0.416498 0.054725 0.000000
0.451732 0.054725 0.000000
0.487082 0.054725 0.000000
0.522500 0.054725 0.000000
0.557941 0.054725 0.000000
0.593359 0.054725 0.000000
0.628706 0.054725 0.000000
0.663935 0.054725 0.000000
0.698996 0.054725 0.000000
0.733837 0.054725 0.000000
0.768401 0.054725 0.000000
0.802629 0.054725 0.000000
0.836452 0.054725 0.000000
0.869793 0.054725 0.000000
0.902561 0.054725 0.000000
0.934639 0.054725 0.000000
0.965872 0.054725 0.000000
0.996023 0.054725 0.000000
1.000000 0.054725 0.000000
1.000000 0.054725 0.000000
0.000000 0.087054 0.000000
0.024388 0.087054 0.000000
0.051950 0.087054 0.000000
0.082666 0.084518 0.000000
0.113419 0.084518 0.000000
0.145042 0.084518 0.000000
0.177381 0.084518 0.000000
0.210326 0.084518 0.000000
0.243788 0.084518 0.000000
0.277691 0.084518 0.000000
0.311970 0.084518 0.000000
0.346567 0.084518 0.000000
0.381427 0.084518 0.000000
0.416498 0.084518 0.000000
0.451732 0.084518 0.000000
0.487082 0.084518 0.000000
0.522500 0.084518 0.000000
0.557941 0.084518 0.000000
0.593359 0.084518 0.000000
0.628706 0.084518 0.000000
0.663935 0.084518 0.000000
0.698996 0.084518 0.000000
0.733837 0.084518 0.000000
0.768401 0.084518 0.000000
0.802629 0.084518 0.000000
0.836452 0.084518 0.000000
0.869793 0.084518 0.000000
0.902561 0.084518 0.000000
0.934639 0.084518 0.000000
0.965872 0.084518 0.000000
0.996023 0.084518 0.000000
1.000000 0.084518 0.000000
1.000000 0.084518 0.000000
0.000000 0.118590 0.000000
0.024388 0.118590 0.000000
0.051950 0.118590 0.000000
0.081012 0.118590 0.000000
0.113419 0.115136 0.000000
0.145042 0.115136 0.000000
0.177381 0.115136 0.000000
0.210326 0.115136 0.000000
0.243788 0.115136 0.000000
0.277691 0.115136 0.000000
0.311970 0.115136 0.000000
0.346567 0.115136 0.000000
0.381427 0.115136 0.000000
0.416498 0.115136 0.000000
0.451732 0.115136 0.000000
0.487082 0.115136 0.000000
0.522500 0.115136 0.000000
0.557941 0.115136 0.000000
0.593359 0.115136 0.000000
0.628706 0.115136 0.000000
0.663935 0.115136 0.000000
0.698996 0.115136 0.000000
0.733837 0.115136 0.000000
0.768401 0.115136 0.000000
0.802629 0.115136 0.000000
0.836452 0.115136 0.000000
0.869793 0.115136 0.000000
0.902561 0.115136 0.000000
0.934639 0.115136 0.000000
0.965872 0.115136 0.000000
0.996023 0.115136 0.000000
1.000000 0.115136 0.000000
1.000000 0.115136 0.000000
0.000000 0.150793 0.000000
0.024388 0.150793 0.000000
0.051950 0.150793 0.000000
0.081012 0.150793 0.000000
0.111151 0.150793 0.000000
0.145042 0.146401 0.000000
0.177381 0.146401 0.000000
0.210326 0.146401 0.000000
0.243788 0.146401 0.000000
0.277691 0.146401 0.000000
0.311970 0.146401 0.000000
0.346567 0.146401 0.000000
0.381427 0.146401 0.000000
0.416498 0.146401 0.000000
0.451732 0.146401 0.000000
0.487082 0.146401 0.000000
0.522500 0.146401 0.000000
0.557941 0.146401 0.000000
0.593359 0.146401 0.000000
0.628706 0.146401 0.000000
0.663935 0.146401 0.000000
0.698996 0.146401 0.000000
0.733837 0.146401 0.000000
0.768401 0.146401 0.000000
0.802629 0.146401 0.000000
0.836452 0.146401 0.000000
0.869793 0.146401 0.000000
0.902561 0.146401 0.000000
0.934639 0.146401 0.000000
0.965872 0.146401 0.000000
0.996023 0.146401 0.000000
1.000000 0.146401 0.000000
1.000000 0.146401 0.000000
0.000000 0.183542 0.000000
0.024388 0.183542 0.000000
0.051950 0.183542 0.000000
0.081012 0.183542 0.000000
0.111151 0.183542 0.000000
0.142141 0.183542 0.000000
0.177381 0.178196 0.000000
0.210326 0.178196 0.000000
0.243788 0.178196 0.000000
0.277691 0.178196 0.000000
0.311970 0.178196 0.000000
0.346567 0.178196 0.000000
0.381427 0.178196 0.000000
0.416498 0.178196 0.000000
0.451732 0.178196 0.000000
0.487082 0.178196 0.000000
0.522500 0.178196 0.000000
0.557941 0.178196 0.000000
0.593359 0.178196 0.000000
0.628706 0.178196 0.000000
0.663935 0.178196 0.000000
0.698996 0.178196 0.000000
0.733837 0.178196 0.000000
0.768401 0.178196 0.000000
0.802629 0.178196 0.000000
0.836452 0.178196 0.000000
0.869793 0.178196 0.000000
0.902561 0.178196 0.000000
0.934639 0.178196 0.000000
0.965872 0.178196 0.000000
0.996023 0.178196 0.000000
1.000000 0.178196 0.000000
1.000000 0.178196 0.000000
0.000000 0.216750 0.000000
0.024388 0.216750 0.000000
0.051950 0.216750 0.000000
0.081012 0.216750 0.000000
0.111151 0.216750 0.000000
0.142141 0.216750 0.000000
0.173834 0.216750 0.000000
0.210326 0.210437 0.000000
0.243788 0.210437 0.000000
0.277691 0.210437 0.000000
0.311970 0.210437 0.000000
0.346567 0.210437 0.000000
0.381427 0.210437 0.000000
0.416498 0.210437 0.000000
0.451732 0.210437 0.000000
0.487082 0.210437 0.000000
0.522500 0.210437 0.000000
0.557941 0.210437 0.000000
0.593359 0.210437 0.000000
0.628706 0.210437 0.000000
0.663935 0.210437 0.000000
0.698996 0.210437 0.000000
0.733837 0.210437 0.000000
0.768401 0.210437 0.000000
0.802629 0.210437 0.000000
0.836452 0.210437 0.000000
0.869793 0.210437 0.000000
0.902561 0.210437 0.000000
0.934639 0.210437 0.000000
0.965872 0.210437 0.000000
0.996023 0.210437 0.000000
1.000000 0.210437 0.000000
1.000000 0.210437 0.000000
0.000000 0.250346 0.000000
0.024388 0.250346 0.000000
0.051950 0.250346 0.000000
0.081012 0.250346 0.000000
0.111151 0.250346 0.000000
0.142141 0.250346 0.000000
0.173834 0.250346 0.000000
0.206120 0.250346 0.000000
0.243788 0.243055 0.000000
0.277691 0.243055 0.000000
0.311970 0.243055 0.000000
0.346567 0.243055 0.000000
0.381427 0.243055 0.000000
0.416498 0.243055 0.000000
0.451732 0.243055 0.000000
0.487082 0.243055 0.000000
0.522500 0.243055 0.000000
0.557941 0.243055 0.000000
0.593359 0.243055 0.000000
0.628706 0.243055 0.000000
0.663935 0.243055 0.000000
0.698996 0.243055 0.000000
0.733837 0.243055 0.000000
0.768401 0.243055 0.000000
0.802629 0.243055 0.000000
0.836452 0.243055 0.000000
0.869793 0.243055 0.000000
0.902561 0.243055 0.000000
0.934639 0.243055 0.000000
0.965872 0.243055 0.000000
0.996023 0.243055 0.000000
1.000000 0.243055 0.000000
1.000000 0.243055 0.000000
0.000000 0.284274 0.000000
0.024388 0.284274 0.000000
0.051950 0.284274 0.000000
0.081012 0.284274 0.000000
0.111151 0.284274 0.000000
0.142141 0.284274 0.000000
0.173834 0.284274 0.000000
0.206120 0.284274 0.000000
0.238912 0.284274 0.000000
0.277691 0.275995 0.000000
0.311970 0.275995 0.000000
0.346567 0.275995 0.000000
0.381427 0.275995 0.000000
0.416498 0.275995 0.000000
0.451732 0.275995 0.000000
0.487082 0.275995 0.000000
0.522500 0.275995 0.000000
0.557941 0.275995 0.000000
0.593359 0.275995 0.000000
0.628706 0.275995 0.000000
0.663935 0.275995 0.000000
0.698996 0.275995 0.000000
0.733837 0.275995 0.000000
0.768401 0.275995 0.000000
0.802629 0.275995 0.000000
0.836452 0.275995 0.000000
0.869793 0.275995 0.000000
0.902561 0.275995 0.000000
0.934639 0.275995 0.000000
0.965872 0.275995 0.000000
0.996023 0.275995 0.000000
1.000000 0.275995 0.000000
1.000000 0.275995 0.000000
0.000000 0.318484 0.000000
0.024388 0.318484 0.000000
0.051950 0.318484 0.000000
0.081012 0.318484 0.000000
0.111151 0.318484 0.000000
0.142141 0.318484 0.000000
0.173834 0.318484 0.000000
0.206120 0.318484 0.000000
0.238912 0.318484 0.000000
0.272137 0.318484 0.000000
0.311970 0.309208 0.000000
0.346567 0.309208 0.000000
0.381427 0.309208 0.000000
0.416498 0.309208 0.000000
0.451732 0.309208 0.000000
0.487082 0.309208 0.000000
0.522500 0.309208 0.000000
0.557941 0.309208 0.000000
0.593359 0.309208 0.000000
0.628706 0.309208 0.000000
0.663935 0.309208 0.000000
0.698996 0.309208 0.000000
0.733837 0.309208 0.000000
0.768401 0.309208 0.000000
0.802629 0.309208 0.000000
0.836452 0.309208 0.000000
0.869793 0.309208 0.000000
0.902561 0.309208 0.000000
0.934639 0.309208 0.000000
0.965872 0.309208 0.000000
0.996023 0.309208 0.000000
1.000000 0.309208 0.000000
1.000000 0.309208 0.000000
0.000000 0.352930 0.000000
0.024388 0.352930 0.000000
0.051950 0.352930 0.000000
0.081012 0.352930 0.000000
0.111151 0.352930 0.000000
0.142141 0.352930 0.000000
0.173834 0.352930 0.000000
0.206120 0.352930 0.000000
0.238912 0.352930 0.000000
0.272137 0.352930 0.000000
0.305731 0.352930 0.000000
0.346567 0.342651 0.000000
0.381427 0.342651 0.000000
0.416498 0.342651 0.000000
0.451732 0.342651 0.000000
0.487082 0.342651 0.000000
0.522500 0.342651 0.000000
0.557941 0.342651 0.000000
0.593359 0.342651 0.000000
0.628706 0.342651 0.000000
0.663935 0.342651 0.000000
0.698996 0.342651 0.000000
0.733837 0.342651 0.000000
0.768401 0.342651 0.000000
0.802629 0.342651 0.000000
0.836452 0.342651 0.000000
0.869793 0.342651 0.000000
0.902561 0.342651 0.000000
0.934639 0.342651 0.000000
0.965872 0.342651 0.000000
0.996023 0.342651 0.000000
1.000000 0.342651 0.000000
1.000000 0.342651 0.000000
0.000000 0.387572 0.000000
0.024388 0.387572 0.000000
0.051950 0.387572 0.000000
0.081012 0.387572 0.000000
0.111151 0.387572 0.000000
0.142141 0.387572 0.000000
0.173834 0.387572 0.000000
0.206120 0.387572 0.000000
0.238912 0.387572 0.000000
0.272137 0.387572 0.000000
0.305731 0.387572 0.000000
0.339636 0.387572 0.000000
0.381427 0.376284 0.000000
0.416498 0.376284 0.000000
0.451732 0.376284 0.000000
0.487082 0.376284 0.000000
0.522500 0.376284 0.000000
0.557941 0.376284 0.000000
0.593359 0.376284 0.000000
0.628706 0.376284 0.000000
0.663935 0.376284 0.000000
0.698996 0.376284 0.000000
0.733837 0.376284 0.000000
0.768401 0.376284 0.000000
0.802629 0.376284 0.000000
0.836452 0.376284 0.000000
0.869793 0.376284 0.000000
0.902561 0.376284 0.000000
0.934639 0.376284 0.000000
0.965872 0.376284 0.000000
0.996023 0.376284 0.000000
1.000000 0.376284 0.000000
1.000000 0.376284 0.000000
0.000000 0.422372 0.000000
0.024388 0.422372 0.000000
0.051950 0.422372 0.000000
0.081012 0.422372 0.000000
0.111151 0.422372 0.000000
0.142141 0.422372 0.000000
0.173834 0.422372 0.000000
0.206120 0.422372 0.000000
0.238912 0.422372 0.000000
0.272137 0.422372 0.000000
0.305731 0.422372 0.000000
0.339636 0.422372 0.000000
0.373798 0.422372 0.000000
0.416498 0.410070 0.000000
0.451732 0.410070 0.000000
0.487082 0.410070 0.000000
0.522500 0.410070 0.000000
0.557941 0.410070 0.000000
0.593359 0.410070 0.000000
0.628706 0.410070 0.000000
0.663935 0.410070 0.000000
0.698996 0.410070 0.000000
0.733837 0.410070 0.000000
0.768401 0.410070 0.000000
0.802629 0.410070 0.000000
0.836452 0.410070 0.000000
0.869793 0.410070 0.000000
0.902561 0.410070 0.000000
0.934639 0.410070 0.000000
0.965872 0.410070 0.000000
0.996023 0.410070 0.000000
1.000000 0.410070 0.000000
1.000000 0.410070 0.000000
0.000000 0.457293 0.000000
0.024388 0.457293 0.000000
0.051950 0.457293 0.000000
0.081012 0.457293 0.000000
0.111151 0.457293 0.000000
0.142141 0.457293 0.000000
0.173834 0.457293 0.000000
0.206120 0.457293 0.000000
0.238912 0.457293 0.000000
0.272137 0.457293 0.000000
0.305731 0.457293 0.000000
0.339636 0.457293 0.000000
0.373798 0.457293 0.000000
0.408168 0.457293 0.000000
0.451732 0.443974 0.000000
0.487082 0.443974 0.000000
0.522500 0.443974 0.000000
0.557941 0.443974 0.000000
0.593359 0.443974 0.000000
0.628706 0.443974 0.000000
0.663935 0.443974 0.000000
0.698996 0.443974 0.000000
0.733837 0.443974 0.000000
0.768401 0.443974 0.000000
0.802629 0.443974 0.000000
0.836452 0.443974 0.000000
0.869793 0.443974 0.000000
0.902561 0.443974 0.000000
0.934639 0.443974 0.000000
0.965872 0.443974 0.000000
0.996023 0.443974 0.000000
1.000000 0.443974 0.000000
1.000000 0.443974 0.000000
0.000000 0.492301 0.000000
0.024388 0.492301 0.000000
0.051950 0.492301 0.000000
0.081012 0.492301 0.000000
0.111151 0.492301 0.000000
0.142141 0.492301 0.000000
0.173834 0.492301 0.000000
0.206120 0.492301 0.000000
0.238912 0.492301 0.000000
0.272137 0.492301 0.000000
0.305731 0.492301 0.000000
0.339636 0.492301 0.000000
0.373798 0.492301 0.000000
0.408168 0.492301 0.000000
0.442697 0.492301 0.000000
0.487082 0.477962 0.000000
0.522500 0.477962 0.000000
0.557941 0.477962 0.000000
0.593359 0.477962 0.000000
0.628706 0.477962 0.000000
0.663935 0.477962 0.000000
0.698996 0.477962 0.000000
0.733837 0.477962 0.000000
0.768401 0.477962 0.000000
0.802629 0.477962 0.000000
0.836452 0.477962 0.000000
0.869793 0.477962 0.000000
0.902561 0.477962 0.000000
0.934639 0.477962 0.000000
0.965872 0.477962 0.000000
0.996023 0.477962 0.000000
1.000000 0.477962 0.000000
1.000000 0.477962 0.000000
0.000000 0.527360 0.000000
0.024388 0.527360 0.000000
0.051950 0.527360 0.000000
0.081012 0.527360 0.000000
0.111151 0.527360 0.000000
0.142141 0.527360 0.000000
0.173834 0.527360 0.000000
0.206120 0.527360 0.000000
0.238912 0.527360 0.000000
0.272137 0.527360 0.000000
0.305731 0.527360 0.000000
0.339636 0.527360 0.000000
0.373798 0.527360 0.000000
0.408168 0.527360 0.000000
0.442697 0.527360 0.000000
0.477340 0.527360 0.000000
0.522500 0.512000 0.000000
0.557941 0.512000 0.000000
0.593359 0.512000 0.000000
0.628706 0.512000 0.000000
0.663935 0.512000 0.000000
0.698996 0.512000 0.000000
0.733837 0.512000 0.000000
0.768401 0.512000 0.000000
0.802629 0.512000 0.000000
0.836452 0.512000 0.000000
0.869793 0.512000 0.000000
0.902561 0.512000 0.000000
0.934639 0.512000 0.000000
0.965872 0.512000 0.000000
0.996023 0.512000 0.000000
1.000000 0.512000 0.000000
1.000000 0.512000 0.000000
0.000000 0.562437 0.000000
0.024388 0.562437 0.000000
0.051950 0.562437 0.000000
0.081012 0.562437 0.000000
0.111151 0.562437 0.000000
0.142141 0.562437 0.000000
0.173834 0.562437 0.000000
0.206120 0.562437 0.000000
0.238912 0.562437 0.000000
0.272137 0.562437 0.000000
0.305731 0.562437 0.000000
0.339636 0.562437 0.000000
0.373798 0.562437 0.000000
0.408168 0.562437 0.000000
0.442697 0.562437 0.000000
0.477340 0.562437 0.000000
0.512050 0.562437 0.000000
0.557941 0.546056 0.000000
0.593359 0.546056 0.000000
0.628706 0.546056 0.000000
0.663935 0.546056 0.000000
0.698996 0.546056 0.000000
0.733837 0.546056 0.000000
0.768401 0.546056 0.000000
0.802629 0.546056 0.000000
0.836452 0.546056 0.000000
0.869793 0.546056 0.000000
0.902561 0.546056 0.000000
0.934639 0.546056 0.000000
0.965872 0.546056 0.000000
0.996023 0.546056 0.000000
1.000000 0.546056 0.000000
1.000000 0.546056 0.000000
0.000000 0.597499 0.000000
0.024388 0.597499 0.000000
0.051950 0.597499 0.000000
0.081012 0.597499 0.000000
0.111151 0.597499 0.000000
0.142141 0.597499 0.000000
0.173834 0.597499 0.000000
0.206120 0.597499 0.000000
0.238912 0.597499 0.000000
0.272137 0.597499 0.000000
0.305731 0.597499 0.000000
0.339636 0.597499 0.000000
0.373798 0.597499 0.000000
0.408168 0.597499 0.000000
0.442697 0.597499 0.000000
0.477340 0.597499 0.000000
0.512050 0.597499 0.000000
0.546782 0.597499 0.000000
0.593359 0.580096 0.000000
0.628706 0.580096 0.000000
0.663935 0.580096 0.000000
0.698996 0.580096 0.000000
0.733837 0.580096 0.000000
0.768401 0.580096 0.000000
0.802629 0.580096 0.000000
0.836452 0.580096 0.000000
0.869793 0.580096 0.000000
0.902561 0.580096 0.000000
0.934639 0.580096 0.000000
0.965872 0.580096 0.000000
0.996023 0.580096 0.000000
1.000000 0.580096 0.000000
1.000000 0.580096 0.000000
0.000000 0.632510 0.000000
0.024388 0.632510 0.000000
0.051950 0.632510 0.000000
0.081012 0.632510 0.000000
0.111151 0.632510 0.000000
0.142141 0.632510 0.000000
0.173834 0.632510 0.000000
0.206120 0.632510 0.000000
0.238912 0.632510 0.000000
0.272137 0.632510 0.000000
0.305731 0.632510 0.000000
0.339636 0.632510 0.000000
0.373798 0.632510 0.000000
0.408168 0.632510 0.000000
0.442697 0.632510 0.000000
0.477340 0.632510 0.000000
0.512050 0.632510 0.000000
0.546782 0.632510 0.000000
0.581492 0.632510 0.000000
0.628706 0.614087 0.000000
0.663935 0.614087 0.000000
0.698996 0.614087 0.000000
0.733837 0.614087 0.000000
0.768401 0.614087 0.000000
0.802629 0.614087 0.000000
0.836452 0.614087 0.000000
0.869793 0.614087 0.000000
0.902561 0.614087 0.000000
0.934639 0.614087 0.000000
0.965872 0.614087 0.000000
0.996023 0.614087 0.000000
1.000000 0.614087 0.000000
1.000000 0.614087 0.000000
0.000000 0.667435 0.000000
0.024388 0.667435 0.000000
0.051950 0.667435 0.000000
0.081012 0.667435 0.000000
0.111151 0.667435 0.000000
0.142141 0.667435 0.000000
0.173834 0.667435 0.000000
0.206120 0.667435 0.000000
0.238912 0.667435 0.000000
0.272137 0.667435 0.000000
0.305731 0.667435 0.000000
0.339636 0.667435 0.000000
0.373798 0.667435 0.000000
0.408168 0.667435 0.000000
0.442697 0.667435 0.000000
0.477340 0.667435 0.000000
0.512050 0.667435 0.000000
0.546782 0.667435 0.000000
0.581492 0.667435 0.000000
0.616132 0.667435 0.000000
0.663935 0.647996 0.000000
0.698996 0.647996 0.000000
0.733837 0.647996 0.000000
0.768401 0.647996 0.000000
0.802629 0.647996 0.000000
0.836452 0.647996 0.000000
0.869793 0.647996 0.000000
0.902561 0.647996 0.000000
0.934639 0.647996 0.000000
0.965872 0.647996 0.000000
0.996023 0.647996 0.000000
1.000000 0.647996 0.000000
1.000000 0.647996 0.000000
0.000000 0.702238 0.000000
0.024388 0.702238 0.000000
0.051950 0.702238 0.000000
0.081012 0.702238 0.000000
0.111151 0.702238 0.000000
0.142141 0.702238 0.000000
0.173834 0.702238 0.000000
0.206120 0.702238 0.000000
0.238912 0.702238 0.000000
0.272137 0.702238 0.000000
0.305731 0.702238 0.000000
0.339636 0.702238 0.000000
0.373798 0.702238 0.000000
0.408168 0.702238 0.000000
0.442697 0.702238 0.000000
0.477340 0.702238 0.000000
0.512050 0.702238 0.000000
0.546782 0.702238 0.000000
0.581492 0.702238 0.000000
0.616132 0.702238 0.000000
0.650657 0.702238 0.000000
0.698996 0.681785 0.000000
0.733837 0.681785 0.000000
0.768401 0.681785 0.000000
0.802629 0.681785 0.000000
0.836452 0.681785 0.000000
0.869793 0.681785 0.000000
0.902561 0.681785 0.000000
0.934639 0.681785 0.000000
0.965872 0.681785 0.000000
0.996023 0.681785 0.000000
1.000000 0.681785 0.000000
1.000000 0.681785 0.000000
0.000000 0.736879 0.000000
0.024388 0.736879 0.000000
0.051950 0.736879 0.000000
0.081012 0.736879 0.000000
0.111151 0.736879 0.000000
0.142141 0.736879 0.000000
0.173834 0.736879 0.000000
0.206120 0.736879 0.000000
0.238912 0.736879 0.000000
0.272137 0.736879 0.000000
0.305731 0.736879 0.000000
0.339636 0.736879 0.000000
0.373798 0.736879 0.000000
0.408168 0.736879 0.000000
0.442697 0.736879 0.000000
0.477340 0.736879 0.000000
0.512050 0.736879 0.000000
0.546782 0.736879 0.000000
0.581492 0.736879 0.000000
0.616132 0.736879 0.000000
0.650657 0.736879 0.000000
0.685016 0.736879 0.000000
0.733837 0.715417 0.000000
0.768401 0.715417 0.000000
0.802629 0.715417 0.000000
0.836452 0.715417 0.000000
0.869793 0.715417 0.000000
0.902561 0.715417 0.000000
0.934639 0.715417 0.000000
0.965872 0.715417 0.000000
0.996023 0.715417 0.000000
1.000000 0.715417 0.000000
1.000000 0.715417 0.000000
0.000000 0.771317 0.000000
0.024388 0.771317 0.000000
0.051950 0.771317 0.000000
0.081012 0.771317 0.000000
0.111151 0.771317 0.000000
0.142141 0.771317 0.000000
0.173834 0.771317 0.000000
0.206120 0.771317 0.000000
0.238912 0.771317 0.000000
0.272137 0.771317 0.000000
0.305731 0.771317 0.000000
0.339636 0.771317 0.000000
0.373798 0.771317 0.000000
0.408168 0.771317 0.000000
0.442697 0.771317 0.000000
0.477340 0.771317 0.000000
0.512050 0.771317 0.000000
0.546782 0.771317 0.000000
0.581492 0.771317 0.000000
0.616132 0.771317 0.000000
0.650657 0.771317 0.000000
0.685016 0.771317 0.000000
0.719160 0.771317 0.000000
0.768401 0.748852 0.000000
0.802629 0.748852 0.000000
0.836452 0.748852 0.000000
0.869793 0.748852 0.000000
0.902561 0.748852 0.000000
0.934639 0.748852 0.000000
0.965872 0.748852 0.000000
0.996023 0.748852 0.000000
1.000000 0.748852 0.000000
1.000000 0.748852 0.000000
0.000000 0.805506 0.000000
0.024388 0.805506 0.000000
0.051950 0.805506 0.000000
0.081012 0.805506 0.000000
0.111151 0.805506 0.000000
0.142141 0.805506 0.000000
0.173834 0.805506 0.000000
0.206120 0.805506 0.000000
0.238912 0.805506 0.000000
0.272137 0.805506 0.000000
0.305731 0.805506 0.000000
0.339636 0.805506 0.000000
0.373798 0.805506 0.000000
0.408168 0.805506 0.000000
0.442697 0.805506 0.000000
0.477340 0.805506 0.000000
0.512050 0.805506 0.000000
0.546782 0.805506 0.000000
0.581492 0.805506 0.000000
0.616132 0.805506 0.000000
0.650657 0.805506 0.000000
0.685016 0.805506 0.000000
0.719160 0.805506 0.000000
0.753033 0.805506 0.000000
0.802629 0.782045 0.000000
0.836452 0.782045 0.000000
0.869793 0.782045 0.000000
0.902561 0.782045 0.000000
0.934639 0.782045 0.000000
0.965872 0.782045 0.000000
0.996023 0.782045 0.000000
1.000000 0.782045 0.000000
1.000000 0.782045 0.000000
0.000000 0.839395 0.000000
0.024388 0.839395 0.000000
0.051950 0.839395 0.000000
0.081012 0.839395 0.000000
0.111151 0.839395 0.000000
0.142141 0.839395 0.000000
0.173834 0.839395 0.000000
0.206120 0.839395 0.000000
0.238912 0.839395 0.000000
0.272137 0.839395 0.000000
0.305731 0.839395 0.000000
0.339636 0.839395 0.000000
0.373798 0.839395 0.000000
0.408168 0.839395 0.000000
0.442697 0.839395 0.000000
0.477340 0.839395 0.000000
0.512050 0.839395 0.000000
0.546782 0.839395 0.000000
0.581492 0.839395 0.000000
0.616132 0.839395 0.000000
0.650657 0.839395 0.000000
0.685016 0.839395 0.000000
0.719160 0.839395 0.000000
0.753033 0.839395 0.000000
0.786576 0.839395 0.000000
0.836452 0.814946 0.000000
0.869793 0.814946 0.000000
0.902561 0.814946 0.000000
0.934639 0.814946 0.000000
0.965872 0.814946 0.000000
0.996023 0.814946 0.000000
1.000000 0.814946 0.000000
1.000000 0.814946 0.000000
0.000000 0.872924 0.000000
0.024388 0.872924 0.000000
0.051950 0.872924 0.000000
0.081012 0.872924 0.000000
0.111151 0.872924 0.000000
0.142141 0.872924 0.000000
0.173834 0.872924 0.000000
0.206120 0.872924 0.000000
0.238912 0.872924 0.000000
0.272137 0.872924 0.000000
0.305731 0.872924 0.000000
0.339636 0.872924 0.000000
0.373798 0.872924 0.000000
0.408168 0.872924 0.000000
0.442697 0.872924 0.000000
0.477340 0.872924 0.000000
0.512050 0.872924 0.000000
0.546782 0.872924 0.000000
0.581492 0.872924 0.000000
0.616132 0.872924 0.000000
0.650657 0.872924 0.000000
0.685016 0.872924 0.000000
0.719160 0.872924 0.000000
0.753033 0.872924 0.000000
0.786576 0.872924 0.000000
0.819723 0.872924 0.000000
0.869793 0.847499 0.000000
